submissions/com.hereliesaz.guillotine.teal-orange/assets/teal-orange.cube
TITLE "Guillotine Teal & Orange"
LUT_3D_SIZE 9
0.000000 0.000000 0.020357
0.080748 0.000000 0.018048
0.226027 0.000000 0.013905
0.378098 0.000000 0.009568
0.533818 0.000000 0.005126
0.690041 0.000000 0.000671
0.843662 0.000000 0.000000
0.991955 0.000000 0.000000
1.000000 0.000000 0.000000
0.000000 0.117777 0.008220
0.068610 0.115468 0.005911
0.213889 0.111325 0.001767
0.366143 0.106844 0.000000
0.522685 0.101763 0.000000
0.680281 0.096227 0.000000
0.835603 0.090403 0.000000
0.985280 0.084463 0.000000
1.000000 0.079125 0.000000
0.000000 0.255280 0.000000
0.055755 0.252115 0.000000
0.202615 0.246685 0.000000
0.356766 0.240706 0.000000
0.514894 0.234348 0.000000
0.673640 0.227785 0.000000
0.829571 0.221145 0.000000
0.979329 0.214643 0.000000
1.000000 0.209206 0.000000
0.000000 0.394066 0.000000
0.047292 0.389576 0.000000
0.195507 0.383189 0.000000
0.350584 0.376482 0.000000
0.509178 0.369668 0.000000
0.667896 0.362927 0.000000
0.823355 0.356435 0.000000
0.972222 0.350377 0.000000
1.000000 0.346205 0.000000
0.000000 0.532373 0.000000
0.040581 0.527361 0.000000
0.189161 0.520937 0.000000
0.344147 0.514517 0.000000
0.502405 0.508356 0.000000
0.661860 0.503014 0.000000
0.819001 0.498663 0.000000
0.969977 0.495413 0.000000
1.000000 0.494530 0.000000
0.000000 0.670661 0.000000
0.033247 0.666381 0.000000
0.183454 0.661644 0.000000
0.341104 0.657610 0.000000
0.502497 0.654381 0.000000
0.664277 0.651660 0.000000
0.822899 0.649242 0.000000
0.974484 0.647158 0.000000
1.000000 0.647344 0.000000
0.000000 0.812172 0.000000
0.033193 0.810429 0.000000
0.186520 0.807974 0.000000
0.346786 0.805499 0.000000
0.510197 0.803033 0.000000
0.672895 0.800607 0.000000
0.831017 0.798253 0.000000
0.980756 0.796002 0.000000
1.000000 0.796319 0.000000
0.000000 0.954791 0.000000
0.040205 0.952933 0.000000
0.195601 0.950584 0.000000
0.356613 0.947991 0.000000
0.519368 0.945192 0.000000
0.680050 0.942222 0.000000
0.834958 0.939114 0.000000
0.980562 0.935895 0.000000
1.000000 0.935294 0.000000
0.000000 1.000000 0.000000
0.053061 1.000000 0.000000
0.207762 1.000000 0.000000
0.366580 1.000000 0.000000
0.525767 1.000000 0.000000
0.681743 1.000000 0.000000
0.831988 1.000000 0.000000
0.974430 1.000000 0.000000
1.000000 1.000000 0.000000
0.000000 0.000000 0.164312
0.079379 0.000000 0.162004
0.224658 0.000000 0.157860
0.376730 0.000000 0.153523
0.532449 0.000000 0.149082
0.688672 0.000000 0.144626
0.842407 0.000000 0.139873
0.990878 0.000000 0.133915
1.000000 0.000000 0.127390
0.000000 0.116408 0.152175
0.067242 0.114100 0.149867
0.212522 0.109955 0.145720
0.364982 0.105313 0.140565
0.521731 0.100075 0.133988
0.679496 0.094408 0.126286
0.834939 0.088481 0.117760
0.984684 0.082465 0.108710
1.000000 0.077097 0.100005
0.000000 0.253685 0.136559
0.054826 0.250358 0.131678
0.201864 0.244801 0.123941
0.356162 0.238722 0.115183
0.514395 0.232292 0.105702
0.673196 0.225685 0.095797
0.829177 0.219075 0.085766
0.978942 0.212636 0.075906
1.000000 0.207308 0.067279
0.000000 0.392054 0.109648
0.046744 0.387483 0.101986
0.195062 0.381072 0.092288
0.350236 0.374408 0.082262
0.508875 0.367666 0.072203
0.667586 0.361023 0.062404
0.822987 0.354653 0.053157
0.971945 0.348803 0.044550
1.000000 0.345011 0.036713
0.000000 0.530339 0.076408
0.040206 0.525387 0.068206
0.188818 0.519069 0.058841
0.343777 0.512779 0.049824
0.502388 0.506901 0.040848
0.662265 0.501910 0.031347
0.819663 0.497915 0.021822
0.970727 0.495018 0.012782
1.000000 0.494340 0.005222
0.000000 0.669016 0.044688
0.033297 0.665058 0.037072
0.183941 0.660669 0.027752
0.341907 0.656986 0.018278
0.503538 0.654042 0.008999
0.665595 0.651443 0.000000
0.824352 0.649128 0.000000
0.975927 0.647125 0.000000
1.000000 0.647429 0.000000
0.000000 0.811713 0.013650
0.034178 0.810121 0.005510
0.187878 0.807775 0.000000
0.348401 0.805389 0.000000
0.511934 0.802990 0.000000
0.674611 0.800609 0.000000
0.832576 0.798275 0.000000
0.982036 0.796016 0.000000
1.000000 0.796340 0.000000
0.000000 0.954739 0.000000
0.041773 0.952874 0.000000
0.197276 0.950556 0.000000
0.358247 0.947971 0.000000
0.520813 0.945155 0.000000
0.681175 0.942140 0.000000
0.835655 0.938955 0.000000
0.980760 0.935627 0.000000
1.000000 0.934884 0.000000
0.000000 1.000000 0.000000
0.054339 1.000000 0.000000
0.208800 1.000000 0.000000
0.367221 1.000000 0.000000
0.525875 1.000000 0.000000
0.681289 1.000000 0.000000
0.831529 1.000000 0.000000
0.973970 1.000000 0.000000
1.000000 1.000000 0.000000
0.000000 0.000000 0.316598
0.077931 0.000000 0.314290
0.223211 0.000000 0.310146
0.375282 0.000000 0.305809
0.531002 0.000000 0.301367
0.687225 0.000000 0.296911
0.841141 0.000000 0.291681
0.989778 0.000000 0.285184
1.000000 0.000000 0.278152
0.000000 0.114961 0.304461
0.065794 0.112652 0.302152
0.211128 0.108464 0.297883
0.363813 0.103647 0.292197
0.520760 0.098260 0.285101
0.678681 0.092471 0.276900
0.834233 0.086450 0.267902
0.984033 0.080365 0.258417
1.000000 0.074976 0.249343
0.000000 0.251957 0.288011
0.053872 0.248476 0.282610
0.201079 0.242800 0.274383
0.355513 0.236630 0.265165
0.513838 0.230136 0.255264
0.672683 0.223494 0.244986
0.828657 0.216876 0.234639
0.978365 0.210457 0.224530
1.000000 0.205194 0.215748
0.000000 0.389938 0.259495
0.046133 0.385292 0.251410
0.194532 0.378853 0.241358
0.349737 0.372189 0.231037
0.508358 0.365476 0.220753
0.667000 0.358890 0.210811
0.822286 0.352605 0.201511
0.971473 0.346991 0.192567
1.000000 0.343541 0.184355
0.000000 0.528145 0.225117
0.039596 0.523210 0.216697
0.188178 0.516957 0.207219
0.343092 0.510774 0.198147
0.502163 0.505195 0.188698
0.662374 0.500512 0.178832
0.819942 0.496828 0.169088
0.971067 0.494187 0.159853
1.000000 0.493649 0.151849
0.000000 0.667144 0.192859
0.033095 0.663469 0.184776
0.184100 0.659383 0.175140
0.342298 0.656005 0.165504
0.504177 0.653231 0.155878
0.666436 0.650703 0.145618
0.825251 0.648436 0.135028
0.976736 0.646456 0.124445
1.000000 0.646817 0.116228
0.000000 0.810872 0.160894
0.034730 0.809323 0.152214
0.188733 0.807033 0.142014
0.349437 0.804678 0.131279
0.513010 0.802289 0.120341
0.675586 0.799893 0.109532
0.833316 0.797521 0.099182
0.982428 0.795201 0.089619
1.000000 0.795477 0.083685
0.000000 0.954066 0.127426
0.042653 0.952134 0.117093
0.198184 0.949790 0.106589
0.359033 0.947157 0.096334
0.521336 0.944270 0.086656
0.681310 0.941163 0.077881
0.835309 0.937862 0.070327
0.979877 0.934394 0.064311
1.000000 0.933500 0.062802
0.000000 1.000000 0.098826
0.054675 1.000000 0.090048
0.208823 1.000000 0.081934
0.366783 1.000000 0.074802
0.524856 1.000000 0.068965
0.679902 1.000000 0.064422
0.830142 1.000000 0.060137
0.972584 1.000000 0.056074
1.000000 1.000000 0.055036
0.000000 0.000000 0.474010
0.076435 0.000000 0.471702
0.221714 0.000000 0.467558
0.373786 0.000000 0.463221
0.529505 0.000000 0.458779
0.685774 0.000000 0.454206
0.839891 0.000000 0.448434
0.988681 0.000000 0.441439
1.000000 0.000000 0.433971
0.000000 0.113464 0.461873
0.064298 0.111156 0.459564
0.209763 0.106862 0.454987
0.362665 0.101878 0.448791
0.519798 0.096352 0.441227
0.677864 0.090449 0.432606
0.833511 0.084341 0.423239
0.983353 0.078196 0.413440
1.000000 0.072794 0.404130
0.000000 0.250128 0.444441
0.052918 0.246501 0.438581
0.200286 0.240715 0.429952
0.354844 0.234462 0.420384
0.513250 0.227913 0.410187
0.672126 0.221243 0.399675
0.828080 0.214626 0.389160
0.977720 0.208234 0.378952
1.000000 0.203045 0.370166
0.000000 0.387748 0.414624
0.045486 0.383036 0.406246
0.193953 0.376578 0.395981
0.349178 0.369922 0.385515
0.507767 0.363246 0.375158
0.666327 0.356725 0.365221
0.821517 0.350542 0.355986
0.971075 0.345224 0.346668
1.000000 0.342117 0.338236
0.000000 0.525905 0.379583
0.038910 0.520996 0.371097
0.187449 0.514817 0.361654
0.342501 0.508807 0.352485
0.502010 0.503533 0.342685
0.662512 0.499158 0.332611
0.820205 0.495784 0.322816
0.971434 0.493325 0.313344
1.000000 0.492917 0.305014
0.000000 0.665321 0.347082
0.032940 0.661923 0.338674
0.184271 0.658140 0.328883
0.342671 0.655060 0.319235
0.504841 0.652384 0.309216
0.667271 0.649917 0.298591
0.826110 0.647687 0.287701
0.977476 0.645721 0.276887
1.000000 0.646129 0.268573
0.000000 0.810011 0.314554
0.035292 0.808484 0.305420
0.189573 0.806240 0.294874
0.350426 0.803908 0.283857
0.514009 0.801518 0.272710
0.676452 0.799098 0.261772
0.833918 0.796679 0.251382
0.982660 0.794287 0.241874
1.000000 0.794502 0.236135
0.000000 0.953330 0.279996
0.043449 0.951322 0.269415
0.198975 0.948942 0.258809
0.359669 0.946252 0.248542
0.521677 0.943286 0.238952
0.681235 0.940077 0.230373
0.834729 0.936652 0.223134
0.978744 0.933033 0.217558
1.000000 0.932040 0.216369
0.000000 1.000000 0.251121
0.054823 1.000000 0.242455
0.208621 1.000000 0.234564
0.366086 1.000000 0.227774
0.523545 1.000000 0.222409
0.678442 1.000000 0.217989
0.828682 1.000000 0.213704
0.971124 1.000000 0.209641
1.000000 1.000000 0.208603
0.000000 0.000000 0.633344
0.074920 0.000000 0.631036
0.220199 0.000000 0.626892
0.372271 0.000000 0.622555
0.527990 0.000000 0.618114
0.684379 0.000000 0.613237
0.838685 0.000000 0.606963
0.987615 0.000000 0.599540
1.000000 0.000000 0.591732
0.000000 0.111949 0.621207
0.062785 0.109639 0.618893
0.208453 0.105182 0.613844
0.361562 0.100041 0.607188
0.518871 0.094382 0.599236
0.677069 0.088375 0.590295
0.832799 0.082187 0.580678
0.982670 0.075990 0.570698
1.000000 0.070582 0.561296
0.000000 0.248233 0.602703
0.051990 0.244466 0.596470
0.199510 0.238578 0.587546
0.354182 0.232250 0.577752
0.512656 0.225655 0.567398
0.671551 0.218966 0.556796
0.827472 0.212356 0.546260
0.977032 0.206000 0.536103
1.000000 0.200892 0.527459
0.000000 0.385519 0.571951
0.044827 0.380748 0.563420
0.193351 0.374278 0.553090
0.348583 0.367640 0.542627
0.507128 0.361008 0.532346
0.665595 0.354560 0.522558
0.820862 0.348545 0.513340
0.970768 0.343530 0.503773
1.000000 0.340770 0.495282
0.000000 0.523651 0.536739
0.038174 0.518777 0.528333
0.186656 0.512681 0.519064
0.342040 0.506915 0.509730
0.501946 0.501946 0.499732
0.662695 0.497877 0.489612
0.820475 0.494810 0.479916
0.971846 0.492456 0.470159
1.000000 0.492172 0.461633
0.000000 0.663576 0.504271
0.032849 0.660450 0.495690
0.184471 0.656969 0.485907
0.343105 0.654127 0.476246
0.505551 0.651527 0.465924
0.668119 0.649112 0.455068
0.826951 0.646909 0.444021
0.978168 0.644947 0.433127
1.000000 0.645390 0.424869
0.000000 0.809148 0.471508
0.035885 0.807631 0.462043
0.190415 0.805424 0.451288
0.351388 0.803105 0.440138
0.514949 0.800704 0.428934
0.677229 0.798251 0.418020
0.834404 0.795775 0.407738
0.982752 0.793301 0.398426
1.000000 0.793443 0.393009
0.000000 0.952522 0.436289
0.044180 0.950464 0.425648
0.199667 0.948039 0.415090
0.360174 0.945282 0.404958
0.521855 0.942229 0.395594
0.680970 0.938909 0.387336
0.833935 0.935351 0.380517
0.977382 0.931574 0.375465
1.000000 0.930537 0.374422
0.000000 1.000000 0.407672
0.054803 1.000000 0.399250
0.208213 1.000000 0.391699
0.365148 1.000000 0.385350
0.522045 1.000000 0.380459
0.676939 1.000000 0.376042
0.827180 1.000000 0.371756
0.969621 1.000000 0.367694
1.000000 1.000000 0.366656
0.000000 0.000000 0.791397
0.073418 0.000000 0.789089
0.218697 0.000000 0.784945
0.370768 0.000000 0.780608
0.526489 0.000000 0.776164
0.683067 0.000000 0.770824
0.837550 0.000000 0.764120
0.986606 0.000000 0.756363
1.000000 0.000000 0.748332
0.000000 0.110447 0.779260
0.061338 0.108089 0.776813
0.207225 0.103457 0.771286
0.360532 0.098167 0.764250
0.518005 0.092385 0.756010
0.676323 0.086280 0.746870
0.832122 0.080021 0.737137
0.982009 0.073779 0.727117
1.000000 0.068373 0.717771
0.000000 0.246303 0.759666
0.051115 0.242405 0.753167
0.198776 0.236423 0.744073
0.353551 0.230029 0.734190
0.512081 0.223394 0.723823
0.670982 0.216694 0.713281
0.826859 0.210101 0.702874
0.976328 0.203788 0.692911
1.000000 0.198767 0.684543
0.000000 0.383281 0.728401
0.044182 0.378460 0.719864
0.192751 0.371987 0.709616
0.347979 0.365373 0.699305
0.506467 0.358796 0.689240
0.664828 0.352429 0.679733
0.820361 0.346651 0.670463
0.970567 0.341940 0.660806
1.000000 0.339527 0.652419
0.000000 0.521417 0.693511
0.037413 0.516586 0.685325
0.185870 0.510596 0.676315
0.341723 0.505128 0.666801
0.501985 0.500462 0.656765
0.662939 0.496700 0.646759
0.820828 0.493881 0.637162
0.972324 0.491608 0.627211
1.000000 0.491439 0.618632
0.000000 0.661938 0.661347
0.032838 0.659080 0.652752
0.184716 0.655901 0.643134
0.343634 0.653221 0.633409
0.506325 0.650686 0.622919
0.668999 0.648313 0.611976
0.827792 0.646128 0.600923
0.978830 0.644159 0.590101
1.000000 0.644626 0.582045
0.000000 0.808310 0.628666
0.036528 0.806791 0.619004
0.191281 0.804610 0.608188
0.352343 0.802295 0.597055
0.515849 0.799874 0.585946
0.677935 0.797378 0.575203
0.834792 0.794835 0.565168
0.982726 0.792270 0.556179
1.000000 0.792325 0.551191
0.000000 0.951676 0.593245
0.044865 0.949586 0.582721
0.200281 0.947107 0.572357
0.360567 0.944276 0.562497
0.521890 0.941126 0.553480
0.680533 0.937687 0.545647
0.832949 0.933986 0.539330
0.975872 0.930061 0.534794
1.000000 0.929023 0.533756
0.000000 1.000000 0.565387
0.054634 1.000000 0.557326
0.207620 1.000000 0.550211
0.363989 1.000000 0.544374
0.520530 1.000000 0.539794
0.675425 1.000000 0.535376
0.825665 1.000000 0.531091
0.968106 1.000000 0.527028
1.000000 1.000000 0.525990
0.000000 0.000000 0.944964
0.071958 0.000000 0.942656
0.217237 0.000000 0.938512
0.369308 0.000000 0.934175
0.525079 0.000000 0.929611
0.681864 0.000000 0.923811
0.836510 0.000000 0.916773
0.985680 0.000000 0.908801
1.000000 0.000000 0.900677
0.000000 0.108987 0.932827
0.060006 0.106520 0.930089
0.206104 0.101721 0.924165
0.359601 0.096290 0.916854
0.517225 0.090392 0.908448
0.675651 0.084197 0.899244
0.831506 0.077875 0.889538
0.981397 0.071596 0.879629
1.000000 0.066200 0.870489
0.000000 0.244372 0.912215
0.050319 0.240349 0.905575
0.198112 0.234281 0.896451
0.352978 0.227829 0.886625
0.511552 0.221163 0.876396
0.670445 0.214460 0.866063
0.826266 0.207890 0.855929
0.975633 0.201629 0.846297
1.000000 0.196703 0.838327
0.000000 0.381069 0.880903
0.043578 0.376205 0.872509
0.192180 0.369736 0.862493
0.347390 0.363156 0.852475
0.505808 0.356640 0.842760
0.664088 0.350375 0.833618
0.820031 0.344891 0.824276
0.970490 0.340482 0.814692
1.000000 0.338418 0.806569
0.000000 0.519235 0.846825
0.036654 0.514456 0.838986
0.185267 0.508640 0.830167
0.341566 0.503474 0.820621
0.502144 0.499112 0.810709
0.663258 0.495657 0.800970
0.821301 0.493009 0.791425
0.972888 0.490808 0.781421
1.000000 0.490743 0.772940
0.000000 0.660435 0.815236
0.032925 0.657843 0.806782
0.185032 0.654956 0.797456
0.344277 0.652367 0.787639
0.507182 0.649889 0.777126
0.669931 0.647547 0.766248
0.828653 0.645370 0.755340
0.979485 0.643385 0.744738
1.000000 0.643864 0.737027
0.000000 0.807523 0.782944
0.037242 0.805989 0.773233
0.192190 0.803826 0.762506
0.353308 0.801504 0.751541
0.516728 0.799054 0.740674
0.678590 0.796505 0.730242
0.835103 0.793886 0.720582
0.982601 0.791220 0.712027
1.000000 0.791175 0.707552
0.000000 0.950847 0.747826
0.045524 0.948715 0.737564
0.200835 0.946174 0.727529
0.360867 0.943259 0.718061
0.521801 0.940003 0.709496
0.679946 0.936438 0.702168
0.831792 0.932586 0.696406
0.974376 0.928564 0.692206
1.000000 0.927526 0.691168
0.000000 1.000000 0.721165
0.054337 1.000000 0.713558
0.206861 1.000000 0.706950
0.362629 1.000000 0.701667
0.519034 1.000000 0.697206
0.673928 1.000000 0.692788
0.824168 1.000000 0.688503
0.966610 1.000000 0.684440
1.000000 1.000000 0.683402
0.000000 0.000000 1.000000
0.070571 0.000000 1.000000
0.215850 0.000000 1.000000
0.367921 0.000000 1.000000
0.523817 0.000000 1.000000
0.680796 0.000000 1.000000
0.835594 0.000000 1.000000
0.984864 0.000000 1.000000
1.000000 0.000000 1.000000
0.000000 0.107597 1.000000
0.058817 0.104964 1.000000
0.205118 0.100007 1.000000
0.358793 0.094441 1.000000
0.516558 0.088436 1.000000
0.675078 0.082159 1.000000
0.830976 0.075781 1.000000
0.980858 0.069472 1.000000
1.000000 0.064093 1.000000
0.000000 0.242473 1.000000
0.049627 0.238331 1.000000
0.197542 0.232186 1.000000
0.352487 0.225683 1.000000
0.511092 0.218995 1.000000
0.669967 0.212295 1.000000
0.825719 0.205759 1.000000
0.974973 0.199557 0.993174
1.000000 0.194742 0.985686
0.000000 0.378913 1.000000
0.043040 0.374014 1.000000
0.191663 0.367559 1.000000
0.346842 0.361021 0.999059
0.505178 0.354575 0.989811
0.663562 0.348478 0.980970
0.819886 0.343293 0.971707
0.970552 0.339187 0.962356
1.000000 0.337474 0.954645
0.000000 0.517137 0.993597
0.035922 0.512420 0.986219
0.184877 0.506849 0.977530
0.341584 0.501983 0.968119
0.502437 0.497924 0.958487
0.663676 0.494770 0.949140
0.821915 0.492221 0.939622
0.973558 0.490080 0.929718
1.000000 0.490112 0.921488
0.000000 0.659098 0.962864
0.033126 0.656767 0.954699
0.185498 0.654110 0.945645
0.345054 0.651592 0.935858
0.508143 0.649160 0.925475
0.670933 0.646841 0.914815
0.829554 0.644662 0.904204
0.980152 0.642650 0.893968
1.000000 0.643130 0.886732
0.000000 0.806812 0.931269
0.038047 0.805253 0.921659
0.193160 0.803097 0.911176
0.354304 0.800759 0.900529
0.517606 0.798270 0.890045
0.679214 0.795659 0.880052
0.835357 0.792954 0.870877
0.982400 0.790179 0.862845
1.000000 0.790021 0.858945
0.000000 0.950060 0.896960
0.046177 0.947878 0.887097
0.201350 0.945266 0.877514
0.361094 0.942258 0.868542
0.521608 0.938890 0.860509
0.679228 0.935188 0.853742
0.830484 0.931178 0.848557
0.972928 0.927117 0.844492
1.000000 0.926078 0.843454
0.000000 1.000000 0.871887
0.053931 1.000000 0.864807
0.205955 1.000000 0.858748
0.361182 1.000000 0.853952
0.517586 1.000000 0.849491
0.672480 1.000000 0.845073
0.822721 1.000000 0.840788
0.965162 1.000000 0.836726
1.000000 1.000000 0.835688
0.000000 0.000000 1.000000
0.070111 0.000000 1.000000
0.215390 0.000000 1.000000
0.367464 0.000000 1.000000
0.523545 0.000000 1.000000
0.680689 0.000000 1.000000
0.835597 0.000000 1.000000
0.984919 0.000000 1.000000
1.000000 0.000000 1.000000
0.000000 0.107087 1.000000
0.058607 0.104266 1.000000
0.205082 0.099136 1.000000
0.358894 0.093414 1.000000
0.516750 0.087270 1.000000
0.675308 0.080875 1.000000
0.831189 0.074402 1.000000
0.981000 0.068022 1.000000
1.000000 0.062617 1.000000
0.000000 0.241383 1.000000
0.049772 0.237090 1.000000
0.197753 0.230830 1.000000
0.352718 0.224236 1.000000
0.511292 0.217484 1.000000
0.670085 0.210748 1.000000
0.825710 0.204204 1.000000
0.974798 0.198027 1.000000
1.000000 0.193352 1.000000
0.000000 0.377441 1.000000
0.043139 0.372466 1.000000
0.191722 0.365984 1.000000
0.346811 0.359450 1.000000
0.505011 0.353042 1.000000
0.663652 0.347143 1.000000
0.820269 0.342212 1.000000
0.971052 0.338365 1.000000
1.000000 0.336959 1.000000
0.000000 0.515590 1.000000
0.035689 0.510921 1.000000
0.185069 0.505605 1.000000
0.342103 0.500995 1.000000
0.503147 0.497196 1.000000
0.664499 0.494241 1.000000
0.822869 0.491724 1.000000
0.974488 0.489586 1.000000
1.000000 0.489653 1.000000
0.000000 0.658248 1.000000
0.033710 0.656134 1.000000
0.186357 0.653591 1.000000
0.346149 0.651088 1.000000
0.509341 0.648643 1.000000
0.672089 0.646284 1.000000
0.830527 0.644042 1.000000
0.980851 0.641980 1.000000
1.000000 0.642449 1.000000
0.000000 0.806351 1.000000
0.039059 0.804704 1.000000
0.194257 0.802495 1.000000
0.355350 0.800086 1.000000
0.518503 0.797549 1.000000
0.679827 0.794867 1.000000
0.835574 0.792067 1.000000
0.982143 0.789173 1.000000
1.000000 0.788889 1.000000
0.000000 0.949342 1.000000
0.046844 0.947101 1.000000
0.201844 0.944409 1.000000
0.361267 0.941302 1.000000
0.521331 0.937811 1.000000
0.678401 0.933967 0.997192
0.829118 0.929811 0.992510
0.971559 0.925748 0.988447
1.000000 0.924710 0.987409
0.000000 1.000000 1.000000
0.053436 1.000000 1.000000
0.204923 1.000000 1.000000
0.359814 1.000000 0.997908
0.516218 1.000000 0.993447
0.671112 1.000000 0.989029
0.821352 1.000000 0.984744
0.963793 1.000000 0.980681
1.000000 1.000000 0.979643
