submissions/com.hereliesaz.guillotine.teal-orange/assets/teal-orange.cube
TITLE "Guillotine Teal & Orange"
LUT_3D_SIZE 5
0.000000 0.000000 0.020357
0.226027 0.000000 0.013905
0.533818 0.000000 0.005126
0.843662 0.000000 0.000000
1.000000 0.000000 0.000000
0.000000 0.255280 0.000000
0.202615 0.246685 0.000000
0.514894 0.234348 0.000000
0.829571 0.221145 0.000000
1.000000 0.209206 0.000000
0.000000 0.532373 0.000000
0.189161 0.520937 0.000000
0.502405 0.508356 0.000000
0.819001 0.498663 0.000000
1.000000 0.494530 0.000000
0.000000 0.812172 0.000000
0.186520 0.807974 0.000000
0.510197 0.803033 0.000000
0.831017 0.798253 0.000000
1.000000 0.796319 0.000000
0.000000 1.000000 0.000000
0.207762 1.000000 0.000000
0.525767 1.000000 0.000000
0.831988 1.000000 0.000000
1.000000 1.000000 0.000000
0.000000 0.000000 0.316598
0.223211 0.000000 0.310146
0.531002 0.000000 0.301367
0.841141 0.000000 0.291681
1.000000 0.000000 0.278152
0.000000 0.251957 0.288011
0.201079 0.242800 0.274383
0.513838 0.230136 0.255264
0.828657 0.216876 0.234639
1.000000 0.205194 0.215748
0.000000 0.528145 0.225117
0.188178 0.516957 0.207219
0.502163 0.505195 0.188698
0.819942 0.496828 0.169088
1.000000 0.493649 0.151849
0.000000 0.810872 0.160894
0.188733 0.807033 0.142014
0.513010 0.802289 0.120341
0.833316 0.797521 0.099182
1.000000 0.795477 0.083685
0.000000 1.000000 0.098826
0.208823 1.000000 0.081934
0.524856 1.000000 0.068965
0.830142 1.000000 0.060137
1.000000 1.000000 0.055036
0.000000 0.000000 0.633344
0.220199 0.000000 0.626892
0.527990 0.000000 0.618114
0.838685 0.000000 0.606963
1.000000 0.000000 0.591732
0.000000 0.248233 0.602703
0.199510 0.238578 0.587546
0.512656 0.225655 0.567398
0.827472 0.212356 0.546260
1.000000 0.200892 0.527459
0.000000 0.523651 0.536739
0.186656 0.512681 0.519064
0.501946 0.501946 0.499732
0.820475 0.494810 0.479916
1.000000 0.492172 0.461633
0.000000 0.809148 0.471508
0.190415 0.805424 0.451288
0.514949 0.800704 0.428934
0.834404 0.795775 0.407738
1.000000 0.793443 0.393009
0.000000 1.000000 0.407672
0.208213 1.000000 0.391699
0.522045 1.000000 0.380459
0.827180 1.000000 0.371756
1.000000 1.000000 0.366656
0.000000 0.000000 0.944964
0.217237 0.000000 0.938512
0.525079 0.000000 0.929611
0.836510 0.000000 0.916773
1.000000 0.000000 0.900677
0.000000 0.244372 0.912215
0.198112 0.234281 0.896451
0.511552 0.221163 0.876396
0.826266 0.207890 0.855929
1.000000 0.196703 0.838327
0.000000 0.519235 0.846825
0.185267 0.508640 0.830167
0.502144 0.499112 0.810709
0.821301 0.493009 0.791425
1.000000 0.490743 0.772940
0.000000 0.807523 0.782944
0.192190 0.803826 0.762506
0.516728 0.799054 0.740674
0.835103 0.793886 0.720582
1.000000 0.791175 0.707552
0.000000 1.000000 0.721165
0.206861 1.000000 0.706950
0.519034 1.000000 0.697206
0.824168 1.000000 0.688503
1.000000 1.000000 0.683402
0.000000 0.000000 1.000000
0.215390 0.000000 1.000000
0.523545 0.000000 1.000000
0.835597 0.000000 1.000000
1.000000 0.000000 1.000000
0.000000 0.241383 1.000000
0.197753 0.230830 1.000000
0.511292 0.217484 1.000000
0.825710 0.204204 1.000000
1.000000 0.193352 1.000000
0.000000 0.515590 1.000000
0.185069 0.505605 1.000000
0.503147 0.497196 1.000000
0.822869 0.491724 1.000000
1.000000 0.489653 1.000000
0.000000 0.806351 1.000000
0.194257 0.802495 1.000000
0.518503 0.797549 1.000000
0.835574 0.792067 1.000000
1.000000 0.788889 1.000000
0.000000 1.000000 1.000000
0.204923 1.000000 1.000000
0.516218 1.000000 0.993447
0.821352 1.000000 0.984744
1.000000 1.000000 0.979643
