submissions/com.hereliesaz.guillotine.teal-orange/assets/teal-orange.cube
TITLE "Guillotine Teal & Orange"
LUT_3D_SIZE 17
0.000000 0.000000 0.020357
0.011638 0.000000 0.020020
0.080748 0.000000 0.018048
0.152342 0.000000 0.016006
0.226027 0.000000 0.013905
0.301410 0.000000 0.011755
0.378098 0.000000 0.009568
0.455699 0.000000 0.007354
0.533818 0.000000 0.005126
0.612063 0.000000 0.002895
0.690041 0.000000 0.000671
0.767358 0.000000 0.000000
0.843662 0.000000 0.000000
0.918665 0.000000 0.000000
0.991955 0.000000 0.000000
1.000000 0.000000 0.000000
1.000000 0.000000 0.000000
0.000000 0.051802 0.015007
0.006289 0.051465 0.014670
0.075398 0.049494 0.012699
0.146992 0.047452 0.010657
0.220677 0.045350 0.008555
0.296061 0.043200 0.006405
0.372749 0.041013 0.004218
0.450349 0.038800 0.002005
0.528469 0.036571 0.000000
0.606817 0.034262 0.000000
0.685065 0.031831 0.000000
0.762803 0.029301 0.000000
0.839615 0.026690 0.000000
0.915081 0.024021 0.000000
0.988781 0.021315 0.000000
1.000000 0.018591 0.000000
1.000000 0.016333 0.000000
0.000000 0.117777 0.008220
0.000000 0.117440 0.007882
0.068610 0.115468 0.005911
0.140204 0.113427 0.003869
0.213889 0.111325 0.001767
0.289290 0.109161 0.000000
0.366143 0.106844 0.000000
0.444077 0.104371 0.000000
0.522685 0.101763 0.000000
0.601558 0.099041 0.000000
0.680281 0.096227 0.000000
0.758436 0.093340 0.000000
0.835603 0.090403 0.000000
0.911359 0.087437 0.000000
0.985280 0.084463 0.000000
1.000000 0.081502 0.000000
1.000000 0.079125 0.000000
0.000000 0.185834 0.001218
0.000000 0.185497 0.000880
0.061662 0.183479 0.000000
0.133472 0.181254 0.000000
0.207538 0.178840 0.000000
0.283462 0.176257 0.000000
0.360837 0.173526 0.000000
0.439254 0.170670 0.000000
0.518301 0.167708 0.000000
0.597561 0.164662 0.000000
0.676613 0.161555 0.000000
0.755037 0.158406 0.000000
0.832408 0.155239 0.000000
0.908302 0.152074 0.000000
0.982284 0.148922 0.000000
1.000000 0.145801 0.000000
1.000000 0.143396 0.000000
0.000000 0.255280 0.000000
0.000000 0.254570 0.000000
0.055755 0.252115 0.000000
0.128069 0.249480 0.000000
0.202615 0.246685 0.000000
0.278985 0.243754 0.000000
0.356766 0.240706 0.000000
0.435542 0.237563 0.000000
0.514894 0.234348 0.000000
0.594401 0.231081 0.000000
0.673640 0.227785 0.000000
0.752167 0.224461 0.000000
0.829571 0.221145 0.000000
0.905433 0.217865 0.000000
0.979329 0.214643 0.000000
1.000000 0.211500 0.000000
1.000000 0.209206 0.000000
0.000000 0.324737 0.000000
0.000000 0.323610 0.000000
0.051093 0.320814 0.000000
0.123821 0.317870 0.000000
0.198745 0.314800 0.000000
0.275448 0.311625 0.000000
0.353512 0.308367 0.000000
0.432512 0.305045 0.000000
0.512007 0.301661 0.000000
0.591595 0.298259 0.000000
0.670852 0.294862 0.000000
0.749354 0.291492 0.000000
0.826677 0.288170 0.000000
0.902398 0.284919 0.000000
0.976098 0.281761 0.000000
1.000000 0.278718 0.000000
1.000000 0.276650 0.000000
0.000000 0.394066 0.000000
0.000000 0.392603 0.000000
0.047292 0.389576 0.000000
0.120332 0.386435 0.000000
0.195507 0.383189 0.000000
0.272394 0.379860 0.000000
0.350584 0.376482 0.000000
0.429654 0.373077 0.000000
0.509178 0.369668 0.000000
0.588733 0.366278 0.000000
0.667896 0.362927 0.000000
0.746243 0.359639 0.000000
0.823355 0.356435 0.000000
0.898812 0.353338 0.000000
0.972222 0.350377 0.000000
1.000000 0.347670 0.000000
1.000000 0.346205 0.000000
0.000000 0.463288 0.000000
0.000000 0.461564 0.000000
0.043916 0.458398 0.000000
0.117126 0.455153 0.000000
0.192425 0.451850 0.000000
0.269390 0.448512 0.000000
0.347597 0.445161 0.000000
0.426619 0.441820 0.000000
0.506034 0.438511 0.000000
0.585419 0.435255 0.000000
0.664352 0.432077 0.000000
0.742524 0.429029 0.000000
0.819823 0.426228 0.000000
0.895797 0.423697 0.000000
0.969964 0.421447 0.000000
1.000000 0.419494 0.000000
1.000000 0.418969 0.000000
0.000000 0.532373 0.000000
0.000000 0.530519 0.000000
0.040581 0.527361 0.000000
0.113857 0.524160 0.000000
0.189161 0.520937 0.000000
0.266066 0.517715 0.000000
0.344147 0.514517 0.000000
0.422982 0.511365 0.000000
0.502405 0.508356 0.000000
0.582185 0.505568 0.000000
0.661860 0.503014 0.000000
0.740959 0.500708 0.000000
0.819001 0.498663 0.000000
0.895502 0.496893 0.000000
0.969977 0.495413 0.000000
1.000000 0.494214 0.000000
1.000000 0.494530 0.000000
0.000000 0.601471 0.000000
0.000000 0.599617 0.000000
0.036934 0.596591 0.000000
0.110139 0.593558 0.000000
0.185341 0.590552 0.000000
0.262454 0.587694 0.000000
0.341122 0.585023 0.000000
0.420896 0.582551 0.000000
0.501317 0.580292 0.000000
0.581914 0.578258 0.000000
0.662211 0.576463 0.000000
0.741727 0.574921 0.000000
0.820048 0.573582 0.000000
0.896797 0.572357 0.000000
0.971488 0.571248 0.000000
1.000000 0.570260 0.000000
1.000000 0.571011 0.000000
0.000000 0.670661 0.000000
0.000000 0.668981 0.000000
0.033247 0.666381 0.000000
0.107195 0.663931 0.000000
0.183454 0.661644 0.000000
0.261577 0.659533 0.000000
0.341104 0.657610 0.000000
0.421567 0.655890 0.000000
0.502497 0.654381 0.000000
0.583542 0.652984 0.000000
0.664277 0.651660 0.000000
0.744225 0.650411 0.000000
0.822899 0.649242 0.000000
0.899814 0.648156 0.000000
0.974484 0.647158 0.000000
1.000000 0.646249 0.000000
1.000000 0.647344 0.000000
0.000000 0.740687 0.000000
0.000000 0.739624 0.000000
0.032269 0.737763 0.000000
0.107094 0.736053 0.000000
0.184088 0.734506 0.000000
0.262817 0.733108 0.000000
0.342946 0.731749 0.000000
0.424022 0.730423 0.000000
0.505575 0.729131 0.000000
0.587125 0.727879 0.000000
0.668191 0.726669 0.000000
0.748287 0.725506 0.000000
0.826929 0.724394 0.000000
0.903634 0.723335 0.000000
0.977920 0.722334 0.000000
1.000000 0.721643 0.000000
1.000000 0.722712 0.000000
0.000000 0.812172 0.000000
0.000000 0.811640 0.000000
0.033193 0.810429 0.000000
0.108755 0.809206 0.000000
0.186520 0.807974 0.000000
0.266020 0.806737 0.000000
0.346786 0.805499 0.000000
0.428339 0.804263 0.000000
0.510197 0.803033 0.000000
0.591877 0.801812 0.000000
0.672895 0.800607 0.000000
0.752768 0.799419 0.000000
0.831017 0.798253 0.000000
0.907169 0.797112 0.000000
0.980756 0.796002 0.000000
1.000000 0.795446 0.000000
1.000000 0.796319 0.000000
0.000000 0.884182 0.000000
0.000000 0.883644 0.000000
0.036037 0.882558 0.000000
0.112354 0.881431 0.000000
0.190728 0.880265 0.000000
0.270681 0.879065 0.000000
0.351731 0.877835 0.000000
0.433395 0.876580 0.000000
0.515187 0.875303 0.000000
0.596626 0.874008 0.000000
0.677232 0.872701 0.000000
0.756532 0.871384 0.000000
0.834059 0.870063 0.000000
0.909355 0.868739 0.000000
0.981973 0.867418 0.000000
1.000000 0.866838 0.000000
1.000000 0.867411 0.000000
0.000000 0.954791 0.000000
0.000000 0.954006 0.000000
0.040205 0.952933 0.000000
0.116959 0.951791 0.000000
0.195601 0.950584 0.000000
0.275648 0.949315 0.000000
0.356613 0.947991 0.000000
0.438013 0.946615 0.000000
0.519368 0.945192 0.000000
0.600202 0.943726 0.000000
0.680050 0.942222 0.000000
0.758451 0.940684 0.000000
0.834958 0.939114 0.000000
0.909136 0.937517 0.000000
0.980562 0.935895 0.000000
1.000000 0.935112 0.000000
1.000000 0.935294 0.000000
0.000000 1.000000 0.000000
0.000000 1.000000 0.000000
0.044625 1.000000 0.000000
0.121459 1.000000 0.000000
0.199998 1.000000 0.000000
0.279757 1.000000 0.000000
0.360253 1.000000 0.000000
0.441011 1.000000 0.000000
0.521559 1.000000 0.000000
0.601438 1.000000 0.000000
0.680199 1.000000 0.000000
0.757402 1.000000 0.000000
0.832625 1.000000 0.000000
0.905460 1.000000 0.000000
0.975565 1.000000 0.000000
1.000000 0.999796 0.000000
1.000000 0.999796 0.000000
0.000000 1.000000 0.000000
0.000000 1.000000 0.000000
0.053061 1.000000 0.000000
0.129658 1.000000 0.000000
0.207762 1.000000 0.000000
0.286894 1.000000 0.000000
0.366580 1.000000 0.000000
0.446356 1.000000 0.000000
0.525767 1.000000 0.000000
0.604372 1.000000 0.000000
0.681743 1.000000 0.000000
0.757647 1.000000 0.000000
0.831988 1.000000 0.000000
0.904381 1.000000 0.000000
0.974430 1.000000 0.000000
1.000000 1.000000 0.000000
1.000000 1.000000 0.000000
0.000000 0.000000 0.091093
0.010966 0.000000 0.090756
0.080075 0.000000 0.088785
0.151669 0.000000 0.086743
0.225354 0.000000 0.084641
0.300738 0.000000 0.082491
0.377426 0.000000 0.080304
0.455026 0.000000 0.078091
0.533145 0.000000 0.075862
0.611390 0.000000 0.073631
0.689368 0.000000 0.071407
0.766686 0.000000 0.069201
0.843037 0.000000 0.066818
0.918088 0.000000 0.064118
0.991421 0.000000 0.061137
1.000000 0.000000 0.057914
1.000000 0.000000 0.054885
0.000000 0.051130 0.085744
0.005616 0.050792 0.085406
0.074726 0.048821 0.083435
0.146320 0.046779 0.081393
0.220005 0.044678 0.079292
0.295388 0.042528 0.077141
0.372076 0.040340 0.074954
0.449677 0.038127 0.072741
0.527812 0.035887 0.070481
0.606219 0.033533 0.067920
0.684522 0.031061 0.065030
0.762309 0.028493 0.061847
0.839164 0.025848 0.058408
0.914667 0.023147 0.054750
0.988396 0.020413 0.050909
1.000000 0.017665 0.046923
1.000000 0.015393 0.043296
0.000000 0.117105 0.078956
0.000000 0.116767 0.078618
0.067938 0.114796 0.076647
0.139532 0.112754 0.074605
0.213217 0.110652 0.072504
0.288654 0.108460 0.070243
0.365565 0.106098 0.067602
0.443553 0.103583 0.064607
0.522212 0.100937 0.061295
0.601130 0.098180 0.057702
0.679893 0.095334 0.053865
0.758083 0.092420 0.049821
0.835278 0.089458 0.045606
0.911055 0.086470 0.041258
0.984990 0.083478 0.036813
1.000000 0.080503 0.032309
1.000000 0.078125 0.028340
0.000000 0.185162 0.071954
0.000000 0.184823 0.071613
0.061043 0.182760 0.069409
0.132908 0.180490 0.066792
0.207027 0.178034 0.063797
0.283001 0.175413 0.060461
0.360423 0.172648 0.056819
0.438883 0.169760 0.052908
0.517967 0.166770 0.048765
0.597258 0.163701 0.044427
0.676337 0.160572 0.039930
0.754780 0.157406 0.035312
0.832164 0.154225 0.030608
0.908065 0.151049 0.025856
0.982057 0.147901 0.021093
1.000000 0.144802 0.016354
1.000000 0.142432 0.012334
0.000000 0.254502 0.063689
0.000000 0.253747 0.062338
0.055296 0.251254 0.059082
0.127656 0.248585 0.055496
0.202246 0.245760 0.051617
0.278655 0.242801 0.047480
0.356471 0.239729 0.043123
0.435277 0.236567 0.038583
0.514653 0.233334 0.033895
0.594178 0.230054 0.029097
0.673428 0.226748 0.024225
0.751980 0.223438 0.019316
0.829409 0.220145 0.014406
0.905289 0.216892 0.009531
0.979198 0.213699 0.004727
1.000000 0.210589 0.000031
1.000000 0.208341 0.000000
0.000000 0.323834 0.051978
0.000000 0.322670 0.049728
0.050752 0.319848 0.045702
0.123517 0.316881 0.041432
0.198474 0.313792 0.036952
0.275205 0.310601 0.032300
0.353291 0.307330 0.027513
0.432311 0.304002 0.022626
0.511841 0.300639 0.017676
0.591459 0.297261 0.012699
0.670740 0.293892 0.007732
0.749258 0.290552 0.002810
0.826591 0.287265 0.000000
0.902317 0.284051 0.000000
0.976014 0.280932 0.000000
1.000000 0.277931 0.000000
1.000000 0.275915 0.000000
0.000000 0.393075 0.037671
0.000000 0.391585 0.034776
0.047027 0.388544 0.030265
0.120094 0.385391 0.025592
0.195302 0.382150 0.020795
0.272230 0.378842 0.015909
0.350454 0.375489 0.010971
0.429552 0.372113 0.006016
0.509098 0.368736 0.001081
0.588668 0.365380 0.000000
0.667839 0.362067 0.000000
0.746187 0.358820 0.000000
0.823293 0.355659 0.000000
0.898739 0.352606 0.000000
0.972203 0.349715 0.000000
1.000000 0.347106 0.000000
1.000000 0.345754 0.000000
0.000000 0.462249 0.021746
0.000000 0.460531 0.018470
0.043733 0.457387 0.013753
0.116982 0.454168 0.008958
0.192315 0.450895 0.004121
0.269307 0.447589 0.000000
0.347533 0.444275 0.000000
0.426567 0.440972 0.000000
0.505987 0.437704 0.000000
0.585369 0.434492 0.000000
0.664293 0.431359 0.000000
0.742582 0.428400 0.000000
0.820003 0.425697 0.000000
0.896079 0.423264 0.000000
0.970324 0.421115 0.000000
1.000000 0.419262 0.000000
1.000000 0.418859 0.000000
0.000000 0.531409 0.005170
0.000000 0.529576 0.001783
0.040474 0.526452 0.000000
0.113776 0.523287 0.000000
0.189096 0.520104 0.000000
0.266010 0.516924 0.000000
0.344093 0.513770 0.000000
0.422956 0.510674 0.000000
0.502523 0.507761 0.000000
0.582431 0.505071 0.000000
0.662216 0.502616 0.000000
0.741404 0.500410 0.000000
0.819513 0.498465 0.000000
0.896060 0.496796 0.000000
0.970558 0.495415 0.000000
1.000000 0.494277 0.000000
1.000000 0.494662 0.000000
0.000000 0.600624 0.000000
0.000000 0.598800 0.000000
0.036854 0.595817 0.000000
0.110064 0.592829 0.000000
0.185353 0.589897 0.000000
0.262609 0.587136 0.000000
0.341407 0.584563 0.000000
0.421296 0.582190 0.000000
0.501813 0.580030 0.000000
0.582486 0.578095 0.000000
0.662839 0.576399 0.000000
0.742393 0.574951 0.000000
0.820788 0.573657 0.000000
0.897594 0.572475 0.000000
0.972324 0.571406 0.000000
1.000000 0.570456 0.000000
1.000000 0.571272 0.000000
0.000000 0.669960 0.000000
0.000000 0.668364 0.000000
0.033410 0.665860 0.000000
0.107486 0.663508 0.000000
0.183861 0.661319 0.000000
0.262085 0.659307 0.000000
0.341696 0.657483 0.000000
0.422223 0.655860 0.000000
0.503222 0.654425 0.000000
0.584357 0.653071 0.000000
0.665166 0.651787 0.000000
0.745169 0.650578 0.000000
0.823882 0.649445 0.000000
0.900818 0.648394 0.000000
0.975491 0.647427 0.000000
1.000000 0.646548 0.000000
1.000000 0.647698 0.000000
0.000000 0.740320 0.000000
0.000000 0.739337 0.000000
0.032749 0.737573 0.000000
0.107663 0.735959 0.000000
0.184728 0.734509 0.000000
0.263558 0.733164 0.000000
0.343788 0.731847 0.000000
0.424952 0.730559 0.000000
0.506576 0.729305 0.000000
0.588182 0.728088 0.000000
0.669285 0.726911 0.000000
0.749401 0.725779 0.000000
0.828045 0.724693 0.000000
0.904734 0.723659 0.000000
0.978989 0.722679 0.000000
1.000000 0.722010 0.000000
1.000000 0.723066 0.000000
0.000000 0.812135 0.000000
0.000000 0.811667 0.000000
0.033900 0.810497 0.000000
0.109574 0.809313 0.000000
0.187438 0.808119 0.000000
0.267024 0.806918 0.000000
0.347860 0.805713 0.000000
0.429466 0.804508 0.000000
0.511360 0.803307 0.000000
0.593058 0.802112 0.000000
0.674077 0.800929 0.000000
0.753923 0.799751 0.000000
0.832114 0.798576 0.000000
0.908192 0.797424 0.000000
0.981692 0.796299 0.000000
1.000000 0.795750 0.000000
1.000000 0.796600 0.000000
0.000000 0.884326 0.000000
0.000000 0.883796 0.000000
0.036987 0.882745 0.000000
0.113388 0.881649 0.000000
0.191831 0.880513 0.000000
0.271836 0.879340 0.000000
0.352920 0.878134 0.000000
0.434600 0.876900 0.000000
0.516371 0.875622 0.000000
0.597765 0.874317 0.000000
0.678309 0.872997 0.000000
0.757532 0.871665 0.000000
0.834969 0.870325 0.000000
0.910163 0.868980 0.000000
0.982670 0.867634 0.000000
1.000000 0.867043 0.000000
1.000000 0.867583 0.000000
0.000000 0.955043 0.000000
0.000000 0.954256 0.000000
0.041294 0.953208 0.000000
0.118098 0.952089 0.000000
0.196770 0.950898 0.000000
0.276805 0.949621 0.000000
0.357740 0.948285 0.000000
0.439092 0.946895 0.000000
0.520381 0.945455 0.000000
0.601135 0.943970 0.000000
0.680887 0.942444 0.000000
0.759180 0.940881 0.000000
0.835569 0.939284 0.000000
0.909620 0.937656 0.000000
0.980915 0.936001 0.000000
1.000000 0.935188 0.000000
1.000000 0.935327 0.000000
0.000000 1.000000 0.000000
0.000000 1.000000 0.000000
0.045701 1.000000 0.000000
0.122521 1.000000 0.000000
0.201027 1.000000 0.000000
0.280735 1.000000 0.000000
0.361162 1.000000 0.000000
0.441832 1.000000 0.000000
0.522279 1.000000 0.000000
0.602043 1.000000 0.000000
0.680675 1.000000 0.000000
0.757742 1.000000 0.000000
0.832822 1.000000 0.000000
0.905509 1.000000 0.000000
0.975565 1.000000 0.000000
1.000000 0.999796 0.000000
1.000000 0.999796 0.000000
0.000000 1.000000 0.000000
0.000000 1.000000 0.000000
0.053984 1.000000 0.000000
0.130524 1.000000 0.000000
0.208552 1.000000 0.000000
0.287588 1.000000 0.000000
0.367161 1.000000 0.000000
0.446808 1.000000 0.000000
0.526078 1.000000 0.000000
0.604530 1.000000 0.000000
0.681748 1.000000 0.000000
0.757647 1.000000 0.000000
0.831988 1.000000 0.000000
0.904381 1.000000 0.000000
0.974430 1.000000 0.000000
1.000000 1.000000 0.000000
1.000000 1.000000 0.000000
0.000000 0.000000 0.164312
0.010270 0.000000 0.163975
0.079379 0.000000 0.162004
0.150973 0.000000 0.159962
0.224658 0.000000 0.157860
0.300042 0.000000 0.155710
0.376730 0.000000 0.153523
0.454330 0.000000 0.151310
0.532449 0.000000 0.149082
0.610694 0.000000 0.146850
0.688672 0.000000 0.144626
0.766002 0.000000 0.142391
0.842407 0.000000 0.139873
0.917504 0.000000 0.137035
0.990878 0.000000 0.133915
1.000000 0.000000 0.130553
1.000000 0.000000 0.127390
0.000000 0.050434 0.158963
0.004920 0.050096 0.158625
0.074030 0.048125 0.156654
0.145624 0.046083 0.154612
0.219309 0.043982 0.152511
0.294692 0.041831 0.150361
0.371380 0.039644 0.148173
0.448981 0.037431 0.145960
0.527151 0.035164 0.143625
0.605616 0.032767 0.140932
0.683973 0.030255 0.137908
0.761807 0.027649 0.134590
0.838704 0.024970 0.131015
0.914242 0.022240 0.127220
0.987999 0.019478 0.123244
1.000000 0.016706 0.119124
1.000000 0.014422 0.115375
0.000000 0.116408 0.152175
0.000000 0.116071 0.151838
0.067242 0.114100 0.149867
0.138836 0.112058 0.147825
0.212522 0.109955 0.145720
0.288014 0.107719 0.143339
0.364982 0.105313 0.140565
0.443023 0.102758 0.137436
0.521731 0.100075 0.133988
0.600694 0.097285 0.130259
0.679496 0.094408 0.126286
0.757718 0.091467 0.122107
0.834939 0.088481 0.117760
0.910736 0.085474 0.113281
0.984684 0.082465 0.108710
1.000000 0.079476 0.104082
1.000000 0.077097 0.100005
0.000000 0.184465 0.145173
0.000000 0.184111 0.144792
0.060418 0.182001 0.142458
0.132337 0.179687 0.139707
0.206509 0.177191 0.136577
0.282531 0.174533 0.133105
0.359999 0.171735 0.129327
0.438500 0.168817 0.125281
0.517620 0.165800 0.121004
0.596942 0.162707 0.116534
0.676045 0.159559 0.111908
0.754506 0.156377 0.107163
0.831902 0.153183 0.102338
0.907808 0.149998 0.097469
0.981798 0.146844 0.092594
1.000000 0.143742 0.087750
1.000000 0.141383 0.083644
0.000000 0.253685 0.136559
0.000000 0.252887 0.135070
0.054826 0.250358 0.131678
0.127232 0.247656 0.127956
0.201864 0.244801 0.123941
0.278312 0.241816 0.119671
0.356162 0.238722 0.115183
0.434996 0.235540 0.110514
0.514395 0.232292 0.105702
0.593936 0.229000 0.100784
0.673196 0.225685 0.095797
0.751752 0.222370 0.090779
0.829177 0.219075 0.085766
0.905049 0.215823 0.080796
0.978942 0.212636 0.075906
1.000000 0.209534 0.071132
1.000000 0.207308 0.067279
0.000000 0.322897 0.124397
0.000000 0.321698 0.122005
0.050396 0.318850 0.117847
0.123198 0.315862 0.113446
0.198186 0.312754 0.108839
0.274943 0.309548 0.104064
0.353050 0.306266 0.099158
0.432085 0.302930 0.094158
0.511624 0.299562 0.089101
0.591244 0.296184 0.084024
0.670521 0.292818 0.078965
0.749029 0.289484 0.073960
0.826346 0.286206 0.069045
0.902049 0.283006 0.064258
0.975720 0.279904 0.059635
1.000000 0.276922 0.055211
1.000000 0.274938 0.051877
0.000000 0.392054 0.109648
0.000000 0.390538 0.106619
0.046744 0.387483 0.101986
0.119835 0.384320 0.097197
0.195062 0.381072 0.092288
0.272004 0.377761 0.087298
0.350236 0.374408 0.082262
0.429335 0.371036 0.077218
0.508875 0.367666 0.072203
0.588433 0.364321 0.067253
0.667586 0.361023 0.062404
0.745910 0.357793 0.057694
0.822987 0.354653 0.053157
0.898399 0.351626 0.048831
0.971945 0.348803 0.044550
1.000000 0.346270 0.040165
1.000000 0.345011 0.036713
0.000000 0.461183 0.093320
0.000000 0.459450 0.089926
0.043479 0.456304 0.085107
0.116740 0.453086 0.080217
0.192079 0.449818 0.075293
0.269071 0.446521 0.070372
0.347289 0.443218 0.065491
0.426310 0.439931 0.060686
0.505710 0.436682 0.055993
0.585067 0.433493 0.051449
0.663990 0.430395 0.047063
0.742395 0.427512 0.042578
0.819911 0.424886 0.037974
0.896060 0.422531 0.033315
0.970357 0.420459 0.028667
1.000000 0.418685 0.024095
1.000000 0.418382 0.020823
0.000000 0.530339 0.076408
0.000000 0.528502 0.072927
0.040206 0.525387 0.068206
0.113506 0.522236 0.063499
0.188818 0.519069 0.058841
0.265716 0.515909 0.054271
0.343777 0.512779 0.049824
0.422702 0.509737 0.045428
0.502388 0.506901 0.040848
0.582398 0.504288 0.036133
0.662265 0.501910 0.031347
0.741514 0.499781 0.026555
0.819663 0.497915 0.021822
0.896229 0.496324 0.017212
0.970727 0.495018 0.012782
1.000000 0.493907 0.008345
1.000000 0.494340 0.005222
0.000000 0.599590 0.059889
0.000000 0.597775 0.056607
0.036527 0.594813 0.052264
0.109723 0.591850 0.048016
0.185127 0.588989 0.043665
0.262500 0.586305 0.039099
0.341402 0.583808 0.034382
0.421378 0.581512 0.029579
0.501964 0.579428 0.024753
0.582687 0.577571 0.019969
0.663069 0.575953 0.015291
0.742656 0.574563 0.010724
0.821101 0.573292 0.006043
0.897940 0.572129 0.001252
0.972682 0.571077 0.000000
1.000000 0.570141 0.000000
1.000000 0.570998 0.000000
0.000000 0.669016 0.044688
0.000000 0.667487 0.041514
0.033297 0.665058 0.037072
0.107476 0.662782 0.032463
0.183941 0.660669 0.027752
0.262239 0.658733 0.023002
0.341907 0.656986 0.018278
0.422472 0.655440 0.013643
0.503538 0.654042 0.008999
0.584738 0.652709 0.004180
0.665595 0.651443 0.000000
0.745628 0.650248 0.000000
0.824352 0.649128 0.000000
0.901281 0.648086 0.000000
0.975927 0.647125 0.000000
1.000000 0.646257 0.000000
1.000000 0.647429 0.000000
0.000000 0.739641 0.029212
0.000000 0.738716 0.025606
0.032863 0.737027 0.021044
0.107840 0.735489 0.016490
0.184958 0.734108 0.011994
0.263880 0.732785 0.007348
0.344187 0.731487 0.002500
0.425413 0.730215 0.000000
0.507083 0.728975 0.000000
0.588715 0.727768 0.000000
0.669827 0.726598 0.000000
0.749935 0.725470 0.000000
0.828552 0.724386 0.000000
0.905198 0.723350 0.000000
0.979394 0.722366 0.000000
1.000000 0.721744 0.000000
1.000000 0.722810 0.000000
0.000000 0.811713 0.013650
0.000000 0.811271 0.010052
0.034178 0.810121 0.005510
0.109940 0.808955 0.000742
0.187878 0.807775 0.000000
0.267523 0.806585 0.000000
0.348401 0.805389 0.000000
0.430032 0.804189 0.000000
0.511934 0.802990 0.000000
0.593621 0.801795 0.000000
0.674611 0.800609 0.000000
0.754422 0.799434 0.000000
0.832576 0.798275 0.000000
0.908602 0.797135 0.000000
0.982036 0.796016 0.000000
1.000000 0.795495 0.000000
1.000000 0.796340 0.000000
0.000000 0.883996 0.000000
0.000000 0.883451 0.000000
0.037422 0.882409 0.000000
0.113879 0.881320 0.000000
0.192363 0.880187 0.000000
0.272391 0.879015 0.000000
0.353481 0.877807 0.000000
0.435147 0.876568 0.000000
0.516906 0.875301 0.000000
0.598276 0.874010 0.000000
0.678780 0.872700 0.000000
0.757946 0.871374 0.000000
0.835310 0.870035 0.000000
0.910419 0.868687 0.000000
0.982830 0.867333 0.000000
1.000000 0.866745 0.000000
1.000000 0.867262 0.000000
0.000000 0.954739 0.000000
0.000000 0.953922 0.000000
0.041773 0.952874 0.000000
0.118598 0.951751 0.000000
0.197276 0.950556 0.000000
0.277321 0.949295 0.000000
0.358247 0.947971 0.000000
0.439571 0.946590 0.000000
0.520813 0.945155 0.000000
0.601503 0.943670 0.000000
0.681175 0.942140 0.000000
0.759373 0.940567 0.000000
0.835655 0.938955 0.000000
0.909590 0.937308 0.000000
0.980760 0.935627 0.000000
1.000000 0.934788 0.000000
1.000000 0.934884 0.000000
0.000000 1.000000 0.000000
0.000000 1.000000 0.000000
0.046145 1.000000 0.000000
0.122971 1.000000 0.000000
0.201464 1.000000 0.000000
0.281138 1.000000 0.000000
0.361511 1.000000 0.000000
0.442109 1.000000 0.000000
0.522466 1.000000 0.000000
0.602124 1.000000 0.000000
0.680636 1.000000 0.000000
0.757571 1.000000 0.000000
0.832510 1.000000 0.000000
0.905056 1.000000 0.000000
0.975106 1.000000 0.000000
1.000000 0.999337 0.000000
1.000000 0.999337 0.000000
0.000000 1.000000 0.000000
0.000000 1.000000 0.000000
0.054339 1.000000 0.000000
0.130836 1.000000 0.000000
0.208800 1.000000 0.000000
0.287752 1.000000 0.000000
0.367221 1.000000 0.000000
0.446745 1.000000 0.000000
0.525875 1.000000 0.000000
0.604174 1.000000 0.000000
0.681289 1.000000 0.000000
0.757187 1.000000 0.000000
0.831529 1.000000 0.000000
0.903921 1.000000 0.000000
0.973970 1.000000 0.000000
1.000000 1.000000 0.000000
1.000000 1.000000 0.000000
0.000000 0.000000 0.239614
0.009554 0.000000 0.239277
0.078663 0.000000 0.237306
0.150257 0.000000 0.235264
0.223942 0.000000 0.233162
0.299326 0.000000 0.231012
0.376014 0.000000 0.228825
0.453614 0.000000 0.226612
0.531733 0.000000 0.224384
0.609978 0.000000 0.222152
0.687956 0.000000 0.219928
0.765317 0.000000 0.217616
0.841773 0.000000 0.214960
0.916916 0.000000 0.211985
0.990329 0.000000 0.208729
1.000000 0.000000 0.205232
1.000000 0.000000 0.201943
0.000000 0.049718 0.234265
0.004204 0.049380 0.233927
0.073314 0.047409 0.231956
