submissions/com.hereliesaz.guillotine.cool-noir/assets/cool-noir.cube
TITLE "Guillotine Cool Noir"
LUT_3D_SIZE 17
0.000000 0.000000 0.013497
0.000000 0.000000 0.020233
0.000000 0.000000 0.027121
0.014683 0.000000 0.034142
0.039206 0.001896 0.041285
0.065168 0.008302 0.048538
0.092221 0.014904 0.055893
0.120160 0.021674 0.063343
0.148848 0.028591 0.070880
0.178190 0.035639 0.078499
0.208111 0.042806 0.086197
0.238554 0.050081 0.093968
0.269473 0.057456 0.101808
0.300829 0.064925 0.109716
0.332591 0.072480 0.117686
0.364731 0.080116 0.125717
0.397225 0.087829 0.133807
0.000000 0.014214 0.036729
0.000000 0.020968 0.043913
0.013558 0.027871 0.051205
0.037998 0.034906 0.058595
0.063902 0.042061 0.066077
0.090908 0.049326 0.073644
0.118808 0.056691 0.081293
0.147463 0.064150 0.089018
0.176775 0.071696 0.096814
0.206670 0.079325 0.104680
0.237089 0.087030 0.112610
0.267986 0.094809 0.120603
0.299323 0.102657 0.128656
0.331066 0.110571 0.136766
0.363188 0.118548 0.144931
0.395666 0.126586 0.153149
0.428479 0.134681 0.161418
0.000000 0.055927 0.061308
0.012437 0.063376 0.068822
0.036794 0.070914 0.076420
0.062638 0.078534 0.084097
0.089597 0.086231 0.091848
0.117457 0.094003 0.099670
0.146079 0.101844 0.107559
0.175362 0.109751 0.115513
0.205230 0.117722 0.123528
0.235626 0.125753 0.131602
0.266501 0.133843 0.139732
0.297817 0.141989 0.147917
0.329541 0.150188 0.156154
0.361646 0.158439 0.164441
0.394108 0.166741 0.172778
0.426905 0.175090 0.181162
0.460019 0.183487 0.189591
0.011322 0.101032 0.086910
0.035594 0.108932 0.094688
0.061376 0.116897 0.102535
0.088288 0.124922 0.110448
0.116109 0.133006 0.118424
0.144697 0.141146 0.126461
0.173950 0.149339 0.134555
0.203792 0.157585 0.142706
0.234163 0.165882 0.150910
0.265016 0.174226 0.159165
0.296312 0.182618 0.167471
0.328018 0.191056 0.175825
0.360105 0.199537 0.184225
0.392550 0.208062 0.192671
0.425331 0.216628 0.201161
0.458431 0.225235 0.209694
0.491832 0.233882 0.218268
0.034396 0.148492 0.113344
0.060118 0.156732 0.121343
0.086981 0.165023 0.129401
0.114762 0.173363 0.137516
0.143316 0.181750 0.145686
0.172539 0.190183 0.153909
0.202354 0.198660 0.162183
0.232702 0.207180 0.170507
0.263533 0.215742 0.178878
0.294808 0.224345 0.187295
0.326495 0.232988 0.195757
0.358565 0.241669 0.204263
0.390993 0.250388 0.212811
0.423759 0.259144 0.221400
0.456843 0.267936 0.230029
0.490231 0.276763 0.238697
0.523905 0.285624 0.247403
0.058861 0.197783 0.140484
0.085676 0.206299 0.148674
0.113417 0.214857 0.156916
0.141937 0.223456 0.165208
0.171130 0.232094 0.173549
0.200918 0.240772 0.181937
0.231241 0.249487 0.190371
0.262050 0.258239 0.198849
0.293305 0.267027 0.207370
0.324973 0.275850 0.215933
0.357025 0.284708 0.224537
0.389437 0.293600 0.233180
0.422187 0.302524 0.241863
0.455257 0.311481 0.250582
0.488630 0.320470 0.259339
0.522291 0.329490 0.268132
0.556227 0.338540 0.276959
0.084373 0.248586 0.168239
0.112074 0.257334 0.176597
0.140559 0.266119 0.185002
0.169722 0.274938 0.193452
0.199483 0.283793 0.201946
0.229782 0.292681 0.210483
0.260569 0.301602 0.219061
0.291803 0.310556 0.227679
0.323452 0.319541 0.236337
0.355486 0.328557 0.245033
0.387881 0.337605 0.253766
0.420616 0.346681 0.262536
0.453671 0.355788 0.271341
0.487030 0.364923 0.280182
0.520677 0.374087 0.289056
0.554601 0.383278 0.297964
0.588787 0.392497 0.306905
0.110732 0.300680 0.196540
0.139183 0.309630 0.205049
0.168315 0.318612 0.213601
0.198049 0.327626 0.222194
0.228324 0.336670 0.230827
0.259088 0.345743 0.239498
0.290302 0.354847 0.248208
0.321932 0.363979 0.256955
0.353948 0.373140 0.265738
0.386327 0.382328 0.274556
0.419045 0.391545 0.283409
0.452085 0.400788 0.292296
0.485430 0.410057 0.301215
0.519064 0.419353 0.310168
0.552975 0.428675 0.319152
0.587149 0.438022 0.328167
0.621576 0.447393 0.337212
0.137808 0.353906 0.225332
0.166910 0.363035 0.233979
0.196617 0.372193 0.242665
0.226867 0.381379 0.251388
0.257609 0.390592 0.260148
0.288802 0.399833 0.268944
0.320413 0.409100 0.277775
0.352411 0.418393 0.286640
0.384773 0.427712 0.295539
0.417476 0.437056 0.304471
0.450501 0.446425 0.313435
0.483831 0.455819 0.322430
0.517452 0.465237 0.331456
0.551350 0.474679 0.340513
0.585512 0.484145 0.349600
0.619927 0.493633 0.358715
0.654586 0.503145 0.367860
0.165506 0.408142 0.254573
0.195186 0.417433 0.263346
0.225411 0.426749 0.272155
0.256130 0.436090 0.280999
0.287303 0.445457 0.289876
0.318894 0.454848 0.298787
0.350875 0.464264 0.307730
0.383220 0.473704 0.316706
0.415907 0.483167 0.325713
0.448917 0.492653 0.334750
0.482233 0.502163 0.343818
0.515840 0.511695 0.352915
0.549725 0.521249 0.362041
0.583875 0.530826 0.371196
0.618278 0.540424 0.380379
0.652925 0.550043 0.389589
0.687807 0.559684 0.398826
0.193756 0.463291 0.284227
0.223956 0.472728 0.293116
0.254653 0.482189 0.302039
0.285805 0.491673 0.310994
0.317377 0.501180 0.319981
0.349339 0.510710 0.328999
0.381667 0.520262 0.338048
0.414338 0.529836 0.347126
0.447334 0.539432 0.356234
0.480636 0.549050 0.365371
0.514229 0.558688 0.374536
0.548101 0.568348 0.383729
0.582238 0.578029 0.392949
0.616630 0.587730 0.402196
0.651266 0.597451 0.411470
0.686136 0.607192 0.420769
0.721233 0.616953 0.430095
0.222502 0.519275 0.314263
0.253177 0.528847 0.323261
0.284308 0.538441 0.332290
0.315860 0.548056 0.341350
0.347805 0.557693 0.350439
0.380116 0.567350 0.359557
0.412771 0.577029 0.368704
0.445751 0.586728 0.377879
0.479039 0.596447 0.387082
0.512619 0.606186 0.396312
0.546477 0.615945 0.405569
0.580602 0.625723 0.414852
0.614982 0.635521 0.424161
0.649606 0.645338 0.433496
0.684466 0.655174 0.442856
0.719552 0.665029 0.452240
0.754857 0.674902 0.461649
0.251701 0.576029 0.344655
0.282811 0.585726 0.353755
0.314345 0.595443 0.362884
0.346271 0.605180 0.372041
0.378565 0.614937 0.381227
0.411204 0.624713 0.390439
0.444169 0.634509 0.399679
0.477443 0.644324 0.408946
0.511009 0.654158 0.418238
0.544855 0.664011 0.427557
0.578967 0.673882 0.436901
0.613335 0.683772 0.446270
0.647948 0.693680 0.455663
0.682796 0.703605 0.465081
0.717872 0.713549 0.474522
0.753166 0.723510 0.483988
0.788672 0.733489 0.493476
0.281316 0.633497 0.375382
0.312830 0.643310 0.384577
0.344738 0.653143 0.393800
0.377015 0.662993 0.403050
0.409638 0.672863 0.412326
0.442588 0.682750 0.421628
0.475847 0.692656 0.430956
0.509400 0.702580 0.440309
0.543232 0.712522 0.449687
0.577332 0.722481 0.459089
0.611688 0.732458 0.468515
0.646290 0.742452 0.477966
0.681127 0.752463 0.487439
0.716192 0.762492 0.496936
0.751476 0.772537 0.506456
0.786972 0.782598 0.515998
0.822673 0.792676 0.525562
0.311316 0.691633 0.406424
0.343206 0.701555 0.415709
0.375466 0.711495 0.425021
0.408073 0.721453 0.434358
0.441008 0.731428 0.443720
0.474252 0.741420 0.453107
0.507791 0.751430 0.462518
0.541611 0.761456 0.471953
0.575698 0.771499 0.481412
0.610042 0.781559 0.490894
0.644632 0.791636 0.500399
0.679458 0.801728 0.509927
0.714513 0.811837 0.519477
0.749786 0.821962 0.529050
0.785272 0.832103 0.538644
0.820963 0.842260 0.548260
0.856853 0.852432 0.557897
0.341675 0.750396 0.437763
0.373917 0.760421 0.447135
0.406508 0.770462 0.456530
0.439428 0.780520 0.465950
0.472658 0.790595 0.475394
0.506183 0.800686 0.484861
0.539990 0.810793 0.494352
0.574065 0.820917 0.503865
0.608397 0.831056 0.513402
0.642975 0.841211 0.522960
0.677790 0.851381 0.532540
0.712834 0.861568 0.542142
0.748097 0.871769 0.551766
0.783573 0.881986 0.561410
0.819255 0.892218 0.571076
0.855135 0.902465 0.580762
0.891209 0.912727 0.590469
0.372370 0.809750 0.469386
0.404945 0.819871 0.478838
0.437849 0.830009 0.488314
0.471065 0.840162 0.497813
0.504576 0.850331 0.507335
0.538369 0.860516 0.516879
0.572432 0.870716 0.526445
0.606752 0.880931 0.536033
0.641318 0.891161 0.545643
0.676123 0.901407 0.555275
0.711155 0.911667 0.564927
0.746409 0.921942 0.574600
0.781875 0.932232 0.584294
0.817546 0.942536 0.594008
0.853418 0.952854 0.603742
0.889482 0.963187 0.613496
0.925734 0.973534 0.623270
0.000000 0.000000 0.033239
0.000000 0.000000 0.040367
0.000000 0.000000 0.047607
0.016962 0.000000 0.054949
0.041646 0.004047 0.062387
0.067726 0.010524 0.069913
0.094871 0.017185 0.077522
0.122887 0.024007 0.085210
0.151642 0.030970 0.092972
0.181042 0.038060 0.100804
0.211015 0.045265 0.108703
0.241506 0.052575 0.116665
0.272469 0.059983 0.124689
0.303865 0.067481 0.132771
0.335665 0.075064 0.140909
0.367840 0.082727 0.149102
0.400367 0.090466 0.157346
0.000000 0.016490 0.057646
0.000000 0.023296 0.065117
0.015828 0.030246 0.072674
0.040433 0.037323 0.080312
0.066454 0.044516 0.088027
0.093554 0.051816 0.095815
0.121531 0.059214 0.103672
0.150253 0.066703 0.111594
0.179625 0.074278 0.119579
0.209572 0.081933 0.127625
0.240039 0.089664 0.135727
0.270980 0.097466 0.143886
0.302357 0.105337 0.152097
0.334138 0.113273 0.160360
0.366295 0.121271 0.168673
0.398806 0.129329 0.177033
0.431650 0.137443 0.185441
0.000000 0.058446 0.083112
0.014698 0.065926 0.090854
0.039222 0.073493 0.098668
0.065185 0.081139 0.106549
0.092239 0.088863 0.114494
0.120178 0.096658 0.122502
0.148867 0.104522 0.130568
0.178209 0.112451 0.138691
0.208130 0.120443 0.146869
0.238573 0.128494 0.155100
0.269493 0.136603 0.163381
0.300849 0.144767 0.171711
0.332611 0.152984 0.180089
0.364752 0.161253 0.188513
0.397246 0.169571 0.196981
0.430075 0.177937 0.205493
0.463218 0.186349 0.214047
0.013573 0.103707 0.109434
0.038015 0.111630 0.117402
0.063919 0.119615 0.125432
0.090925 0.127661 0.133519
0.118826 0.135764 0.141662
0.147481 0.143922 0.149859
0.176794 0.152134 0.158109
0.206689 0.160397 0.166408
0.237109 0.168710 0.174756
0.268006 0.177071 0.183151
0.299343 0.185479 0.191591
0.331086 0.193931 0.200075
0.363209 0.202428 0.208602
0.395687 0.210966 0.217171
0.428500 0.219547 0.225781
0.461629 0.228167 0.234430
0.495058 0.236827 0.243118
0.036810 0.151284 0.136477
0.062655 0.159542 0.144640
0.089614 0.167850 0.152857
0.117475 0.176206 0.161124
0.146097 0.184609 0.169442
0.175380 0.193057 0.177807
0.205249 0.201549 0.186218
0.235645 0.210083 0.194675
0.266521 0.218660 0.203175
0.297837 0.227276 0.211717
0.329562 0.235932 0.220301
0.361667 0.244626 0.228925
0.394128 0.253358 0.237589
0.426926 0.262126 0.246290
0.460040 0.270930 0.255029
0.493455 0.279768 0.263804
0.527157 0.288641 0.272614
0.061393 0.200671 0.164147
0.088305 0.209201 0.172482
0.116127 0.217773 0.180864
0.144715 0.226385 0.189292
0.173968 0.235037 0.197764
0.203811 0.243727 0.206280
0.234182 0.252455 0.214838
0.265036 0.261219 0.223436
0.296332 0.270020 0.232075
0.328038 0.278855 0.240752
0.360125 0.287724 0.249467
0.392571 0.296627 0.258219
0.425352 0.305563 0.267007
0.458452 0.314530 0.275831
0.491853 0.323530 0.284688
0.525542 0.332560 0.293580
0.559503 0.341620 0.302504
0.086998 0.251553 0.192371
0.114780 0.260313 0.200860
0.143334 0.269110 0.209391
0.172558 0.277941 0.217964
0.202373 0.286807 0.226577
0.232721 0.295707 0.235230
0.263552 0.304639 0.243921
0.294828 0.313604 0.252649
0.326515 0.322600 0.261415
0.358585 0.331627 0.270216
0.391014 0.340684 0.279051
0.423780 0.349771 0.287922
0.456865 0.358887 0.296825
0.490252 0.368032 0.305762
0.523927 0.377205 0.314730
0.557876 0.386406 0.323730
0.592087 0.395634 0.332761
0.113435 0.303716 0.221095
0.141955 0.312677 0.229722
0.171148 0.321670 0.238389
0.200937 0.330694 0.247094
0.231261 0.339748 0.255836
0.262070 0.348832 0.264615
0.293325 0.357945 0.273428
0.324993 0.367087 0.282277
0.357045 0.376257 0.291159
0.389457 0.385455 0.300075
0.422208 0.394681 0.309023
0.455278 0.403933 0.318003
0.488651 0.413211 0.327014
0.522312 0.422516 0.336056
0.556249 0.431846 0.345128
0.590448 0.441201 0.354229
0.624899 0.450582 0.363360
0.140577 0.357003 0.250273
0.169740 0.366142 0.259028
0.199502 0.375310 0.267819
0.229801 0.384505 0.276646
0.260588 0.393727 0.285507
0.291823 0.402977 0.294401
0.323472 0.412253 0.303329
0.355507 0.421555 0.312289
0.387902 0.430882 0.321280
0.420637 0.440235 0.330302
0.453692 0.449613 0.339355
0.487051 0.459015 0.348438
0.520699 0.468441 0.357550
0.554622 0.477891 0.366691
0.588809 0.487365 0.375860
0.623248 0.496861 0.385057
0.657930 0.506381 0.394281
0.168334 0.411294 0.279868
0.198069 0.420593 0.288741
0.228343 0.429918 0.297648
0.259108 0.439269 0.306587
0.290322 0.448644 0.315558
0.321952 0.458043 0.324561
0.353969 0.467467 0.333595
0.386347 0.476915 0.342659
0.419066 0.486386 0.351752
0.452106 0.495880 0.360875
0.485451 0.505397 0.370026
0.519086 0.514937 0.379205
0.552996 0.524499 0.388412
0.587171 0.534083 0.397646
0.621598 0.543688 0.406906
0.656268 0.553315 0.416193
0.691172 0.562963 0.425506
0.196636 0.466494 0.309850
0.226886 0.475939 0.318832
0.257628 0.485407 0.327846
0.288822 0.494899 0.336891
0.320433 0.504414 0.345966
0.352432 0.513951 0.355070
0.384793 0.523511 0.364203
0.417496 0.533093 0.373364
0.450522 0.542696 0.382554
0.483853 0.552321 0.391770
0.517473 0.561967 0.401014
0.551371 0.571633 0.410284
0.585533 0.581321 0.419581
0.619949 0.591029 0.428903
0.654608 0.600757 0.438250
0.689500 0.610505 0.447623
0.724618 0.620272 0.457020
0.225430 0.522524 0.340191
0.256150 0.532103 0.349277
0.287323 0.541704 0.358392
0.318914 0.551327 0.367535
0.350895 0.560970 0.376707
0.383240 0.570635 0.385906
0.415928 0.580320 0.395133
0.448938 0.590026 0.404386
0.482254 0.599752 0.413666
0.515862 0.609498 0.422972
0.549747 0.619263 0.432303
0.583896 0.629048 0.441660
0.618300 0.638853 0.451041
0.652947 0.648676 0.460447
0.687829 0.658519 0.469877
0.722937 0.668380 0.479331
0.758262 0.678259 0.488808
0.254673 0.579320 0.370871
0.285825 0.589024 0.380052
0.317397 0.598747 0.389262
0.349360 0.608491 0.398498
0.381688 0.618255 0.407761
0.414359 0.628038 0.417051
0.447355 0.637840 0.426366
0.480657 0.647662 0.435707
0.514251 0.657502 0.445072
0.548122 0.667361 0.454463
0.582260 0.677239 0.463877
0.616652 0.687135 0.473316
0.651288 0.697048 0.482778
0.686158 0.706980 0.492264
0.721255 0.716930 0.501772
0.756570 0.726897 0.511303
0.792096 0.736881 0.520857
0.284328 0.636828 0.401868
0.315880 0.646647 0.411140
0.347825 0.656486 0.420439
0.380136 0.666343 0.429764
0.412792 0.676219 0.439113
0.445772 0.686112 0.448488
0.479060 0.696025 0.457887
0.512640 0.705955 0.467311
0.546499 0.715902 0.476758
0.580624 0.725868 0.486229
0.615004 0.735850 0.495723
0.649628 0.745850 0.505239
0.684488 0.755867 0.514779
0.719574 0.765901 0.524340
0.754879 0.775952 0.533924
0.790395 0.786019 0.543529
0.826115 0.796103 0.553155
0.314365 0.695001 0.433165
0.346291 0.704929 0.442524
0.378586 0.714875 0.451907
0.411225 0.724838 0.461315
0.444190 0.734819 0.470747
0.477464 0.744817 0.480203
0.511030 0.754833 0.489682
0.544876 0.764865 0.499185
0.578989 0.774914 0.508710
0.613357 0.784979 0.518257
0.647970 0.795061 0.527827
0.682818 0.805159 0.537418
0.717894 0.815274 0.547031
0.753189 0.825404 0.556665
0.788695 0.835550 0.566321
0.824405 0.845712 0.575997
0.860314 0.855890 0.585694
0.344758 0.753798 0.464746
0.377036 0.763829 0.474187
0.409659 0.773876 0.483652
0.442609 0.783940 0.493139
0.475868 0.794020 0.502650
0.509421 0.804117 0.512183
0.543254 0.814229 0.521738
0.577354 0.824358 0.531316
0.611710 0.834503 0.540915
0.646312 0.844663 0.550536
0.681149 0.854839 0.560178
0.716214 0.865030 0.569841
0.751498 0.875237 0.579525
0.786994 0.885459 0.589229
0.822695 0.895696 0.598953
0.858595 0.905948 0.608697
0.894686 0.916215 0.618461
0.375486 0.813185 0.496599
0.408094 0.823312 0.506118
0.441029 0.833455 0.515659
0.474273 0.843614 0.525223
0.507813 0.853788 0.534808
0.541632 0.863978 0.544415
0.575720 0.874183 0.554044
0.610064 0.884404 0.563694
0.644654 0.894639 0.573364
0.679481 0.904889 0.583055
0.714535 0.915155 0.592767
0.749809 0.925435 0.602498
0.785295 0.935729 0.612250
0.820986 0.946038 0.622021
0.856876 0.956362 0.631811
0.892959 0.966699 0.641621
0.929229 0.977051 0.651450
0.000000 0.000000 0.054006
0.000000 0.000000 0.061432
0.000000 0.000000 0.068947
0.019260 0.000000 0.076546
0.044099 0.006224 0.084224
0.070293 0.012767 0.091977
0.097529 0.019485 0.099800
0.125621 0.026357 0.107691
0.154441 0.033364 0.115645
0.183899 0.040494 0.123661
0.213925 0.047736 0.131736
0.244463 0.055080 0.139867
0.275469 0.062519 0.148053
0.306905 0.070047 0.156291
0.338742 0.077658 0.164579
0.370952 0.085347 0.172916
0.403512 0.093110 0.181301
0.000000 0.018784 0.079333
0.000000 0.025641 0.087038
0.018117 0.032635 0.094817
0.042879 0.039753 0.102665
0.069016 0.046984 0.110579
0.096208 0.054318 0.118557
0.124262 0.061747 0.126594
0.153050 0.069266 0.134690
0.182479 0.076869 0.142841
0.212479 0.084550 0.151046
0.242994 0.092306 0.159303
0.273978 0.100132 0.167609
0.305395 0.108025 0.175964
0.337213 0.115982 0.184365
0.369406 0.124001 0.192812
0.401949 0.132078 0.201302
0.434824 0.140212 0.209836
0.000000 0.060977 0.105539
0.016977 0.068486 0.113477
0.041662 0.076081 0.121476
0.067742 0.083754 0.129535
0.094888 0.091502 0.137651
0.122905 0.099321 0.145822
0.151660 0.107208 0.154046
0.181061 0.115158 0.162321
0.211035 0.123171 0.170645
0.241526 0.131242 0.179017
0.272488 0.139370 0.187435
0.303885 0.147552 0.195898
0.335685 0.155787 0.204404
0.367860 0.164072 0.212953
0.400388 0.172407 0.221543
0.433247 0.180788 0.230172
0.466421 0.189216 0.238841
0.015843 0.106391 0.132483
0.040449 0.114335 0.140620
0.066471 0.122341 0.148810
0.093571 0.130406 0.157053
0.121549 0.138528 0.165346
0.150272 0.146705 0.173688
0.179643 0.154935 0.182076
0.209591 0.163215 0.190511
0.240059 0.171544 0.198990
0.271000 0.179921 0.207512
0.302377 0.188344 0.216075
0.334158 0.196812 0.224680
0.366316 0.205323 0.233324
0.398827 0.213876 0.242007
0.431671 0.222470 0.250727
0.464830 0.231104 0.259484
0.498287 0.239777 0.268278
0.039238 0.154083 0.160066
0.065202 0.162358 0.168377
0.092256 0.170683 0.176736
0.120196 0.179055 0.185142
0.148885 0.187473 0.193593
0.178227 0.195936 0.202087
0.208149 0.204442 0.210625
0.238593 0.212991 0.219203
0.269512 0.221581 0.227822
0.300869 0.230211 0.236481
0.332632 0.238880 0.245177
0.364772 0.247587 0.253911
0.397267 0.256331 0.262682
0.430095 0.265112 0.271488
0.463240 0.273928 0.280329
0.496683 0.282778 0.289204
0.530411 0.291662 0.298112
0.063936 0.203563 0.188213
0.090943 0.212107 0.196680
0.118844 0.220693 0.205191
0.147500 0.229319 0.213743
0.176813 0.237984 0.222337
0.206708 0.246687 0.230970
0.237128 0.255427 0.239642
0.268026 0.264204 0.248353
0.299363 0.273016 0.257100
0.331106 0.281863 0.265884
0.363229 0.290744 0.274702
0.395708 0.299658 0.283556
0.428521 0.308605 0.292443
0.461650 0.317583 0.301363
0.495080 0.326593 0.310316
0.528795 0.335633 0.319301
0.562782 0.344704 0.328316
0.089632 0.254524 0.216867
0.117493 0.263297 0.225475
0.146116 0.272105 0.234123
0.175399 0.280949 0.242809
0.205268 0.289826 0.251533
0.235664 0.298737 0.260294
0.266540 0.307680 0.269090
0.297857 0.316655 0.277922
0.329582 0.325662 0.286787
0.361687 0.334699 0.295687
0.394149 0.343766 0.304619
0.426947 0.352863 0.313583
0.460061 0.361989 0.322579
0.493477 0.371144 0.331606
0.527178 0.380327 0.340663
0.561153 0.389537 0.349750
0.595389 0.398774 0.358867
0.116145 0.306756 0.245981
0.144733 0.315728 0.254718
0.173987 0.324731 0.263492
0.203830 0.333765 0.272301
0.234202 0.342829 0.281145
0.265056 0.351923 0.290024
0.296352 0.361046 0.298935
0.328058 0.370198 0.307879
0.360146 0.379378 0.316855
0.392591 0.388585 0.325862
0.425373 0.397820 0.334900
0.458473 0.407081 0.343968
0.491875 0.416368 0.353066
0.525563 0.425682 0.362193
0.559525 0.435020 0.371348
0.593749 0.444384 0.380531
0.628224 0.453773 0.389742
0.143353 0.360104 0.275517
0.172576 0.369252 0.284374
0.202392 0.378429 0.293264
0.232740 0.387634 0.302187
0.263572 0.396865 0.311143
0.294848 0.406124 0.320131
0.326535 0.415409 0.329149
0.358606 0.424719 0.338198
0.391034 0.434056 0.347277
0.423801 0.443417 0.356385
0.456886 0.452803 0.365522
0.490273 0.462213 0.374688
0.523948 0.471648 0.383881
0.557897 0.481106 0.393102
0.592109 0.490587 0.402349
0.626572 0.500091 0.411624
0.661276 0.509619 0.420924
0.171167 0.414449 0.305444
0.200956 0.423757 0.314411
0.231280 0.433091 0.323410
0.262090 0.442450 0.332440
0.293345 0.451833 0.341500
0.325014 0.461241 0.350590
0.357066 0.470673 0.359708
0.389478 0.480129 0.368856
0.422229 0.489608 0.378032
0.455299 0.499110 0.387235
0.488672 0.508634 0.396465
0.522334 0.518182 0.405723
0.556270 0.527751 0.415006
0.590470 0.537342 0.424316
0.624921 0.546955 0.433651
0.659614 0.556589 0.443011
0.694539 0.566244 0.452396
0.199521 0.469699 0.335735
0.229821 0.479152 0.344806
0.260608 0.488628 0.353906
0.291843 0.498128 0.363035
0.323492 0.507651 0.372193
0.355527 0.517195 0.381379
0.387923 0.526763 0.390592
0.420658 0.536352 0.399833
0.453713 0.545962 0.409100
0.487072 0.555594 0.418393
0.520720 0.565247 0.427712
0.554644 0.574921 0.437056
0.588831 0.584615 0.446425
0.623270 0.594330 0.455819
0.657952 0.604065 0.465237
0.692867 0.613820 0.474679
0.728006 0.623594 0.484145
0.228363 0.525774 0.366366
0.259128 0.535361 0.375534
0.290342 0.544970 0.384730
0.321972 0.554599 0.393953
0.353989 0.564250 0.403203
0.386368 0.573922 0.412480
0.419087 0.583614 0.421782
0.452128 0.593327 0.431111
0.485473 0.603059 0.440464
0.519107 0.612812 0.449842
0.553018 0.622584 0.459245
0.587193 0.632376 0.468672
0.621620 0.642187 0.478122
0.656291 0.652017 0.487597
0.691194 0.661865 0.497094
0.726323 0.671733 0.506614
0.761669 0.681618 0.516156
0.257648 0.582613 0.397318
0.288842 0.592324 0.406578
0.320453 0.602054 0.415864
0.352452 0.611805 0.425176
0.384814 0.621575 0.434513
0.417517 0.631365 0.443875
0.450543 0.641174 0.453263
0.483874 0.651001 0.462674
0.517495 0.660848 0.472110
0.551393 0.670714 0.481569
0.585555 0.680597 0.491051
0.619971 0.690499 0.500557
0.654630 0.700419 0.510085
0.689523 0.710357 0.519636
0.724641 0.720313 0.529209
0.759976 0.730286 0.538803
0.795522 0.740276 0.548419
0.287343 0.640160 0.428572
0.318935 0.649986 0.437919
0.350916 0.659831 0.447290
0.383261 0.669695 0.456686
0.415948 0.679577 0.466107
0.448959 0.689477 0.475551
0.482276 0.699395 0.485018
0.515883 0.709331 0.494509
0.549768 0.719285 0.504023
0.583918 0.729256 0.513560
0.618322 0.739244 0.523118
0.652969 0.749250 0.532699
0.687851 0.759273 0.542302
0.722959 0.769312 0.551925
0.758284 0.779369 0.561570
0.793820 0.789441 0.571236
0.829559 0.799531 0.580923
0.317417 0.698371 0.460113
0.349380 0.708305 0.469542
0.381709 0.718257 0.478995
0.414380 0.728226 0.488471
0.447376 0.738213 0.497970
0.480678 0.748217 0.507493
0.514272 0.758238 0.517037
0.548144 0.768276 0.526604
0.582282 0.778330 0.536193
0.616674 0.788401 0.545803
0.651310 0.798489 0.555434
0.686181 0.808593 0.565087
0.721278 0.818712 0.574761
0.756593 0.828848 0.584455
0.792119 0.839000 0.594169
0.827848 0.849167 0.603903
0.863776 0.859350 0.613658
0.347846 0.757203 0.491927
0.380157 0.767239 0.501434
0.412813 0.777292 0.510965
0.445793 0.787361 0.520517
0.479081 0.797447 0.530092
0.512662 0.807549 0.539689
0.546521 0.817667 0.549307
0.580646 0.827801 0.558946
0.615026 0.837951 0.568606
0.649651 0.848117 0.578287
0.684510 0.858298 0.587989
0.719597 0.868495 0.597711
0.754902 0.878707 0.607452
0.790418 0.888934 0.617214
0.826138 0.899176 0.626995
0.862056 0.909433 0.636795
0.898166 0.919705 0.646615
0.378606 0.816623 0.524001
0.411246 0.826755 0.533583
0.444211 0.836903 0.543188
0.477485 0.847067 0.552814
0.511052 0.857247 0.562461
0.544898 0.867442 0.572129
0.579011 0.877652 0.581817
0.613379 0.887878 0.591526
0.647992 0.898118 0.601255
0.682841 0.908374 0.611004
0.717916 0.918644 0.620772
0.753211 0.928929 0.630561
0.788717 0.939229 0.640368
0.824428 0.949543 0.650194
0.860337 0.959871 0.660039
0.896437 0.970213 0.669903
0.932725 0.980570 0.679786
0.000000 0.000000 0.075572
0.000000 0.000000 0.083240
0.000000 0.000000 0.090983
0.021576 0.002015 0.098798
0.046565 0.008424 0.106680
0.072869 0.015030 0.114626
0.100194 0.021803 0.122635
0.128361 0.028722 0.130702
0.157247 0.035773 0.138826
0.186762 0.042942 0.147005
0.216839 0.050219 0.155236
0.247424 0.057596 0.163518
0.278472 0.065066 0.171850
0.309949 0.072623 0.180228
0.341822 0.080261 0.188653
0.374067 0.087975 0.197122
0.406659 0.095763 0.205635
0.000000 0.021097 0.101660
0.000000 0.028002 0.109566
0.020424 0.035039 0.117535
