submissions/com.hereliesaz.guillotine.cool-noir/assets/cool-noir.cube
TITLE "Guillotine Cool Noir"
LUT_3D_SIZE 5
0.000000 0.000000 0.013497
0.039206 0.001896 0.041285
0.148848 0.028591 0.070880
0.269473 0.057456 0.101808
0.397225 0.087829 0.133807
0.034396 0.148492 0.113344
0.143316 0.181750 0.145686
0.263533 0.215742 0.178878
0.390993 0.250388 0.212811
0.523905 0.285624 0.247403
0.137808 0.353906 0.225332
0.257609 0.390592 0.260148
0.384773 0.427712 0.295539
0.517452 0.465237 0.331456
0.654586 0.503145 0.367860
0.251701 0.576029 0.344655
0.378565 0.614937 0.381227
0.511009 0.654158 0.418238
0.647948 0.693680 0.455663
0.788672 0.733489 0.493476
0.372370 0.809750 0.469386
0.504576 0.850331 0.507335
0.641318 0.891161 0.545643
0.781875 0.932232 0.584294
0.925734 0.973534 0.623270
0.000000 0.000000 0.097796
0.049042 0.010647 0.129669
0.160058 0.038195 0.162458
0.281480 0.067623 0.196038
0.409810 0.098423 0.230316
0.044132 0.159698 0.208441
0.154478 0.193216 0.242953
0.275508 0.227439 0.278068
0.403553 0.262291 0.313732
0.536928 0.297716 0.349901
0.148922 0.366314 0.326844
0.269552 0.403151 0.363187
0.397308 0.440411 0.399986
0.530454 0.478069 0.437211
0.667975 0.516102 0.474836
0.263612 0.589206 0.450864
0.391076 0.628222 0.488628
0.523991 0.667547 0.526763
0.661320 0.707167 0.565247
0.802380 0.747071 0.604065
0.384855 0.823503 0.579342
0.517538 0.864170 0.618277
0.654674 0.905082 0.657524
0.795567 0.946232 0.697071
0.939722 0.987612 0.736904
0.000000 0.000000 0.191711
0.059066 0.019741 0.225904
0.171359 0.048011 0.260730
0.293550 0.077946 0.296130
0.422443 0.109142 0.332056
0.054065 0.170997 0.309151
0.165735 0.204763 0.345257
0.287547 0.239207 0.381836
0.416162 0.274260 0.418855
0.549990 0.309867 0.456287
0.160132 0.378775 0.432436
0.281560 0.415759 0.470011
0.409893 0.453156 0.507967
0.543497 0.490944 0.546281
0.681399 0.529100 0.584937
0.275588 0.602421 0.560316
0.403636 0.641543 0.599092
0.537014 0.680970 0.638187
0.674727 0.720688 0.677589
0.816117 0.760686 0.717282
0.397391 0.837286 0.692006
0.530540 0.878037 0.731804
0.668064 0.919031 0.771877
0.809290 0.960260 0.812218
0.953738 1.000000 0.852815
0.000000 0.002371 0.291581
0.069258 0.029117 0.327442
0.182749 0.058015 0.363793
0.305681 0.088413 0.400599
0.435123 0.119978 0.437831
0.064176 0.182383 0.414106
0.177081 0.216388 0.451486
0.299648 0.251046 0.489257
0.428819 0.286293 0.527398
0.563091 0.322077 0.565888
0.171434 0.391287 0.541371
0.293630 0.428414 0.579984
0.422527 0.465947 0.618925
0.556579 0.503862 0.658177
0.694857 0.542139 0.697728
0.287627 0.615672 0.672542
0.416246 0.654899 0.712199
0.550076 0.694426 0.752139
0.688168 0.734240 0.792349
0.829884 0.774331 0.832821
0.409977 0.851097 0.807054
0.543583 0.891932 0.847619
0.681488 0.933007 0.888433
0.823042 0.974313 0.929487
0.967779 1.000000 0.970774
0.000000 0.011143 0.395877
0.079605 0.038733 0.433056
0.194222 0.068191 0.470637
0.317871 0.099014 0.508599
0.447850 0.130925 0.546919
0.074447 0.193854 0.522509
0.188513 0.228089 0.560956
0.311809 0.262953 0.599737
0.441523 0.298387 0.638838
0.576231 0.334345 0.678244
0.182824 0.403848 0.653150
0.305762 0.441116 0.692664
0.435207 0.478781 0.732465
0.569700 0.516821 0.772544
0.708347 0.555217 0.812889
0.299728 0.628959 0.787202
0.428903 0.668290 0.827641
0.563178 0.707915 0.868333
0.701642 0.747825 0.909270
0.843680 0.788007 0.950444
0.422610 0.864937 0.924233
0.556665 0.905855 0.965491
0.694946 0.947009 1.000000
0.836824 0.988393 1.000000
0.981847 1.000000 1.000000
