submissions/com.hereliesaz.guillotine.cool-noir/assets/cool-noir.cube
TITLE "Guillotine Cool Noir"
LUT_3D_SIZE 9
0.000000 0.000000 0.013497
0.000000 0.000000 0.027121
0.039206 0.001896 0.041285
0.092221 0.014904 0.055893
0.148848 0.028591 0.070880
0.208111 0.042806 0.086197
0.269473 0.057456 0.101808
0.332591 0.072480 0.117686
0.397225 0.087829 0.133807
0.000000 0.055927 0.061308
0.036794 0.070914 0.076420
0.089597 0.086231 0.091848
0.146079 0.101844 0.107559
0.205230 0.117722 0.123528
0.266501 0.133843 0.139732
0.329541 0.150188 0.156154
0.394108 0.166741 0.172778
0.460019 0.183487 0.189591
0.034396 0.148492 0.113344
0.086981 0.165023 0.129401
0.143316 0.181750 0.145686
0.202354 0.198660 0.162183
0.263533 0.215742 0.178878
0.326495 0.232988 0.195757
0.390993 0.250388 0.212811
0.456843 0.267936 0.230029
0.523905 0.285624 0.247403
0.084373 0.248586 0.168239
0.140559 0.266119 0.185002
0.199483 0.283793 0.201946
0.260569 0.301602 0.219061
0.323452 0.319541 0.236337
0.387881 0.337605 0.253766
0.453671 0.355788 0.271341
0.520677 0.374087 0.289056
0.588787 0.392497 0.306905
0.137808 0.353906 0.225332
0.196617 0.372193 0.242665
0.257609 0.390592 0.260148
0.320413 0.409100 0.277775
0.384773 0.427712 0.295539
0.450501 0.446425 0.313435
0.517452 0.465237 0.331456
0.585512 0.484145 0.349600
0.654586 0.503145 0.367860
0.193756 0.463291 0.284227
0.254653 0.482189 0.302039
0.317377 0.501180 0.319981
0.381667 0.520262 0.338048
0.447334 0.539432 0.356234
0.514229 0.558688 0.374536
0.582238 0.578029 0.392949
0.651266 0.597451 0.411470
0.721233 0.616953 0.430095
0.251701 0.576029 0.344655
0.314345 0.595443 0.362884
0.378565 0.614937 0.381227
0.444169 0.634509 0.399679
0.511009 0.654158 0.418238
0.578967 0.673882 0.436901
0.647948 0.693680 0.455663
0.717872 0.713549 0.474522
0.788672 0.733489 0.493476
0.311316 0.691633 0.406424
0.375466 0.711495 0.425021
0.441008 0.731428 0.443720
0.507791 0.751430 0.462518
0.575698 0.771499 0.481412
0.644632 0.791636 0.500399
0.714513 0.811837 0.519477
0.785272 0.832103 0.538644
0.856853 0.852432 0.557897
0.372370 0.809750 0.469386
0.437849 0.830009 0.488314
0.504576 0.850331 0.507335
0.572432 0.870716 0.526445
0.641318 0.891161 0.545643
0.711155 0.911667 0.564927
0.781875 0.932232 0.584294
0.853418 0.952854 0.603742
0.925734 0.973534 0.623270
0.000000 0.000000 0.054006
0.000000 0.000000 0.068947
0.044099 0.006224 0.084224
0.097529 0.019485 0.099800
0.154441 0.033364 0.115645
0.213925 0.047736 0.131736
0.275469 0.062519 0.148053
0.338742 0.077658 0.164579
0.403512 0.093110 0.181301
0.000000 0.060977 0.105539
0.041662 0.076081 0.121476
0.094888 0.091502 0.137651
0.151660 0.107208 0.154046
0.211035 0.123171 0.170645
0.272488 0.139370 0.187435
0.335685 0.155787 0.204404
0.400388 0.172407 0.221543
0.466421 0.189216 0.238841
0.039238 0.154083 0.160066
0.092256 0.170683 0.176736
0.148885 0.187473 0.193593
0.208149 0.204442 0.210625
0.269512 0.221581 0.227822
0.332632 0.238880 0.245177
0.397267 0.256331 0.262682
0.463240 0.273928 0.280329
0.530411 0.291662 0.298112
0.089632 0.254524 0.216867
0.146116 0.272105 0.234123
0.205268 0.289826 0.251533
0.266540 0.307680 0.269090
0.329582 0.325662 0.286787
0.394149 0.343766 0.304619
0.460061 0.361989 0.322579
0.527178 0.380327 0.340663
0.595389 0.398774 0.358867
0.143353 0.360104 0.275517
0.202392 0.378429 0.293264
0.263572 0.396865 0.311143
0.326535 0.415409 0.329149
0.391034 0.434056 0.347277
0.456886 0.452803 0.365522
0.523948 0.471648 0.383881
0.592109 0.490587 0.402349
0.661276 0.509619 0.420924
0.199521 0.469699 0.335735
0.260608 0.488628 0.353906
0.323492 0.507651 0.372193
0.387923 0.526763 0.390592
0.453713 0.545962 0.409100
0.520720 0.565247 0.427712
0.588831 0.584615 0.446425
0.657952 0.604065 0.465237
0.728006 0.623594 0.484145
0.257648 0.582613 0.397318
0.320453 0.602054 0.415864
0.384814 0.621575 0.434513
0.450543 0.641174 0.453263
0.517495 0.660848 0.472110
0.585555 0.680597 0.491051
0.654630 0.700419 0.510085
0.724641 0.720313 0.529209
0.795522 0.740276 0.548419
0.317417 0.698371 0.460113
0.381709 0.718257 0.478995
0.447376 0.738213 0.497970
0.514272 0.758238 0.517037
0.582282 0.778330 0.536193
0.651310 0.798489 0.555434
0.721278 0.818712 0.574761
0.792119 0.839000 0.594169
0.863776 0.859350 0.613658
0.378606 0.816623 0.524001
0.444211 0.836903 0.543188
0.511052 0.857247 0.562461
0.579011 0.877652 0.581817
0.647992 0.898118 0.601255
0.717916 0.918644 0.620772
0.788717 0.939229 0.640368
0.860337 0.959871 0.660039
0.932725 0.980570 0.679786
0.000000 0.000000 0.097796
0.000596 0.000000 0.113609
0.049042 0.010647 0.129669
0.102868 0.024137 0.145958
0.160058 0.038195 0.162458
0.219758 0.052713 0.179156
0.281480 0.067623 0.196038
0.344906 0.082872 0.213095
0.409810 0.098423 0.230316
0.000000 0.066068 0.151942
0.046581 0.081284 0.168515
0.100212 0.096805 0.185282
0.157265 0.112601 0.202228
0.216858 0.128646 0.219346
0.278492 0.144921 0.236624
0.341843 0.161409 0.254056
0.406680 0.178094 0.271634
0.472833 0.194965 0.289351
0.044132 0.159698 0.208441
0.097564 0.176364 0.225618
0.154478 0.193216 0.242953
0.213963 0.210244 0.260439
0.275508 0.227439 0.278068
0.338783 0.244790 0.295835
0.403553 0.262291 0.313732
0.469647 0.279935 0.331756
0.536928 0.297716 0.349901
0.094923 0.260478 0.266841
0.151697 0.278108 0.284521
0.211073 0.295875 0.302336
0.272528 0.313773 0.320280
0.335726 0.331797 0.338348
0.400429 0.349942 0.356536
0.466463 0.368204 0.374840
0.533690 0.386579 0.393255
0.602001 0.405063 0.411777
0.148922 0.366314 0.326844
0.208187 0.384678 0.344956
0.269552 0.403151 0.363187
0.332672 0.421730 0.381531
0.397308 0.440411 0.399986
0.463282 0.459192 0.418547
0.530454 0.478069 0.437211
0.598716 0.497040 0.455975
0.667975 0.516102 0.474836
0.205307 0.476117 0.388238
0.266580 0.495078 0.406731
0.329622 0.514131 0.425330
0.394191 0.533273 0.444031
0.460103 0.552502 0.462830
0.527221 0.571815 0.481726
0.595433 0.591212 0.500715
0.664647 0.610688 0.519794
0.734787 0.630244 0.538962
0.263612 0.589206 0.450864
0.326576 0.608675 0.469699
0.391076 0.628222 0.488628
0.456928 0.647847 0.507651
0.523991 0.667547 0.526763
0.592153 0.687321 0.545962
0.661320 0.707167 0.565247
0.731418 0.727085 0.584615
0.802380 0.747071 0.604065
0.323533 0.705116 0.514598
0.387964 0.725026 0.533742
0.453755 0.745006 0.552973
0.520763 0.765054 0.572289
0.588874 0.785169 0.591687
0.657996 0.805350 0.611166
0.728051 0.825595 0.630723
0.798972 0.845904 0.650357
0.870705 0.866275 0.670067
0.384855 0.823503 0.579342
0.450585 0.843805 0.598769
0.517538 0.864170 0.618277
0.585599 0.884596 0.637862
0.654674 0.905082 0.657524
0.724685 0.925628 0.677261
0.795567 0.946232 0.697071
0.867263 0.966894 0.716952
0.939722 0.987612 0.736904
0.000000 0.000000 0.143867
0.004892 0.002133 0.160341
0.054032 0.015156 0.177014
0.108237 0.028854 0.193874
0.165697 0.043078 0.210908
0.225609 0.057736 0.228109
0.287507 0.072766 0.245466
0.351084 0.088121 0.262973
0.416121 0.103767 0.280622
0.002745 0.071199 0.200055
0.051548 0.086523 0.217152
0.105567 0.102140 0.234410
0.162893 0.118023 0.251823
0.222701 0.134149 0.269382
0.284512 0.150498 0.287082
0.348014 0.167054 0.304916
0.412985 0.183804 0.322878
0.479257 0.200735 0.340964
0.049075 0.165336 0.258199
0.102903 0.182067 0.275810
0.160095 0.198980 0.293559
0.219796 0.216065 0.311440
0.281520 0.233314 0.329448
0.344947 0.250717 0.347578
0.409852 0.268267 0.365826
0.476065 0.285958 0.384186
0.543454 0.303784 0.402656
0.100247 0.266450 0.317982
0.157302 0.284127 0.336035
0.216897 0.301938 0.354208
0.278532 0.319880 0.372497
0.341883 0.337946 0.390898
0.406722 0.356131 0.409407
0.472875 0.374432 0.428021
0.540211 0.392845 0.446736
0.608621 0.411365 0.465550
0.154515 0.372538 0.379184
0.214002 0.390940 0.397624
0.275548 0.409449 0.416172
0.338823 0.428063 0.434823
0.403595 0.446778 0.453574
0.469689 0.465592 0.472423
0.536971 0.484501 0.491366
0.605332 0.503504 0.510401
0.674683 0.522596 0.529526
0.211111 0.482546 0.441638
0.272568 0.501539 0.460425
0.335766 0.520622 0.479309
0.400471 0.539794 0.498286
0.466505 0.559052 0.517354
0.533733 0.578393 0.536511
0.602044 0.597817 0.555754
0.671350 0.617321 0.575082
0.741576 0.636902 0.594491
0.269591 0.595809 0.505217
0.332713 0.615304 0.524318
0.397350 0.634878 0.543507
0.463324 0.654529 0.562781
0.530497 0.674254 0.582138
0.598759 0.694053 0.601578
0.668020 0.713923 0.621097
0.738203 0.733864 0.640693
0.809245 0.753875 0.660366
0.329663 0.711870 0.569819
0.394232 0.731804 0.589206
0.460146 0.751807 0.608675
0.527264 0.771877 0.628222
0.595477 0.792015 0.647847
0.664691 0.812218 0.667547
0.734832 0.832485 0.687321
0.805834 0.852815 0.707167
0.877642 0.873207 0.727085
0.391117 0.830391 0.635358
0.456970 0.850714 0.655010
0.524034 0.871100 0.674737
0.592196 0.891547 0.694538
0.661365 0.912053 0.714410
0.731463 0.932619 0.734353
0.802425 0.953243 0.754365
0.874196 0.973924 0.774444
0.946727 0.994661 0.794590
0.000000 0.000000 0.191711
0.009287 0.006467 0.208724
0.059066 0.019741 0.225904
0.113636 0.033631 0.243242
0.171359 0.048011 0.260730
0.231479 0.062801 0.278362
0.293550 0.077946 0.296130
0.357276 0.093404 0.314030
0.422443 0.109142 0.332056
0.007092 0.076368 0.249592
0.056560 0.091795 0.267133
0.110951 0.107506 0.284815
0.168544 0.123473 0.302632
0.228561 0.139677 0.320578
0.290547 0.156098 0.338649
0.354199 0.172721 0.356839
0.419301 0.189534 0.375144
0.485691 0.206525 0.393561
0.054065 0.170997 0.309151
0.108273 0.187791 0.327143
0.165735 0.204763 0.345257
0.225648 0.221905 0.363490
0.287547 0.239207 0.381836
0.351125 0.256661 0.400293
0.416162 0.274260 0.418855
0.482494 0.291997 0.437521
0.549990 0.309867 0.456287
0.105602 0.272437 0.370156
0.162931 0.290161 0.388543
0.222739 0.308017 0.407039
0.284552 0.326001 0.425639
0.348055 0.344108 0.444341
0.413026 0.362333 0.463143
0.479299 0.380673 0.482040
0.546742 0.399122 0.501030
0.615251 0.417678 0.520111
0.160132 0.378775 0.432436
0.219835 0.397213 0.451175
0.281560 0.415759 0.470011
0.344988 0.434407 0.488943
0.409893 0.453156 0.507967
0.476107 0.472003 0.527080
0.543497 0.490944 0.546281
0.611957 0.509978 0.565567
0.681399 0.529100 0.584937
0.216935 0.488985 0.495858
0.278572 0.508009 0.514915
0.341924 0.527123 0.534060
0.406763 0.546324 0.553293
0.472918 0.565611 0.572610
0.540254 0.584981 0.592009
0.608665 0.604432 0.611489
0.678062 0.623962 0.631048
0.748373 0.643570 0.650683
0.275588 0.602421 0.560316
0.338864 0.621943 0.579663
0.403636 0.641543 0.599092
0.469731 0.661219 0.618601
0.537014 0.680970 0.638187
0.605375 0.700793 0.657851
0.674727 0.720688 0.677589
0.744996 0.740652 0.697400
0.816117 0.760686 0.717282
0.335807 0.718631 0.625723
0.400512 0.738589 0.645337
0.466548 0.758615 0.665028
0.533776 0.778709 0.684793
0.602088 0.798869 0.704630
0.671395 0.819093 0.724538
0.741621 0.839382 0.744516
0.812703 0.859733 0.764563
0.884586 0.880146 0.784676
0.397391 0.837286 0.692006
0.463366 0.857630 0.711870
0.530540 0.878037 0.731804
0.598803 0.898504 0.751807
0.668064 0.919031 0.771877
0.738248 0.939617 0.792015
0.809290 0.960260 0.812218
0.881136 0.980960 0.832485
0.953738 1.000000 0.852815
0.000000 0.000000 0.241020
0.013771 0.010895 0.258490
0.064142 0.024397 0.276103
0.119064 0.038464 0.293855
0.177043 0.052991 0.311738
0.237367 0.067907 0.329748
0.299608 0.083162 0.347880
0.363481 0.098718 0.366129
0.428777 0.114546 0.384491
0.011533 0.081573 0.300350
0.061615 0.097100 0.318280
0.116364 0.112901 0.336335
0.174217 0.128951 0.354510
0.234440 0.145230 0.372801
0.296597 0.161721 0.391204
0.360397 0.178410 0.409715
0.425630 0.195285 0.428330
0.492136 0.212333 0.447047
0.059099 0.176679 0.361156
0.113672 0.193535 0.379488
0.171397 0.210566 0.397931
0.231518 0.227764 0.416480
0.293590 0.245118 0.435133
0.357317 0.262622 0.453886
0.422485 0.280268 0.472736
0.488933 0.298051 0.491681
0.556536 0.315965 0.510718
0.110987 0.278441 0.423259
0.168582 0.296210 0.441949
0.228600 0.314111 0.460737
0.290587 0.332137 0.479622
0.354240 0.350285 0.498601
0.419343 0.368549 0.517671
0.485733 0.386926 0.536829
0.553283 0.405412 0.556074
0.621889 0.424004 0.575402
0.165772 0.385025 0.486521
0.225687 0.403500 0.505533
0.287587 0.422080 0.524635
0.351166 0.440764 0.543825
0.416204 0.459546 0.563101
0.482536 0.478425 0.582460
0.550033 0.497398 0.601901
0.618591 0.516462 0.621421
0.688124 0.535615 0.641019
0.222778 0.495436 0.550833
0.284591 0.514490 0.570139
0.348096 0.533634 0.589528
0.413068 0.552865 0.608998
0.479341 0.572180 0.628547
0.546785 0.591577 0.648173
0.615294 0.611055 0.667874
0.684783 0.630612 0.687649
0.755177 0.650246 0.707497
0.281599 0.609042 0.616106
0.345029 0.628591 0.635683
0.409935 0.648217 0.655336
0.476150 0.667918 0.675065
0.543540 0.687694 0.694867
0.612000 0.707541 0.714740
0.681444 0.727460 0.734684
0.751796 0.747448 0.754697
0.822997 0.767504 0.774778
0.341965 0.725401 0.682266
0.406805 0.745382 0.702094
0.472960 0.765432 0.721993
0.540297 0.785548 0.741962
0.608709 0.805730 0.762000
0.678107 0.825976 0.782105
0.748418 0.846286 0.802276
0.819579 0.866659 0.822511
0.891536 0.887092 0.842811
0.403678 0.844188 0.749249
0.469774 0.864554 0.769312
0.537057 0.884981 0.789441
0.605419 0.905468 0.809635
0.674772 0.926015 0.829894
0.745041 0.946621 0.850216
0.816162 0.967283 0.870601
0.888083 0.988003 0.891046
0.960755 1.000000 0.911551
0.000000 0.002371 0.291581
0.018333 0.015408 0.309448
0.069258 0.029117 0.327442
0.124519 0.043350 0.345559
0.182749 0.058015 0.363793
0.243272 0.073052 0.382141
0.305681 0.088413 0.400599
0.369699 0.104064 0.419164
0.435123 0.119978 0.437831
0.016058 0.086814 0.352184
0.066712 0.102437 0.370460
0.121806 0.118324 0.388849
0.179912 0.134454 0.407346
0.240337 0.150807 0.425948
0.302663 0.167367 0.444652
0.366609 0.184121 0.463455
0.431970 0.201055 0.482354
0.498591 0.218161 0.501346
0.064176 0.182383 0.414106
0.119100 0.199300 0.432746
0.177081 0.216388 0.451486
0.237406 0.233640 0.470324
0.299648 0.251046 0.489257
0.363522 0.268599 0.508283
0.428819 0.286293 0.527398
0.495384 0.304120 0.546600
0.563091 0.322077 0.565888
0.116400 0.284460 0.477206
0.174255 0.302275 0.496173
0.234479 0.320218 0.515231
0.296637 0.338287 0.534378
0.360438 0.356474 0.553612
0.425671 0.374777 0.572931
0.492178 0.393192 0.592331
0.559834 0.411714 0.611813
0.628537 0.430341 0.631372
0.171434 0.391287 0.541371
0.231557 0.409798 0.560636
0.293630 0.428414 0.579984
0.357358 0.447131 0.599414
0.422527 0.465947 0.618925
0.488976 0.484858 0.638513
0.556579 0.503862 0.658177
0.625234 0.522956 0.677916
0.694857 0.542139 0.697728
0.228639 0.501897 0.606508
0.290627 0.520982 0.626047
0.354281 0.540155 0.645663
0.419385 0.559415 0.665355
0.485776 0.578758 0.685121
0.553326 0.598183 0.704959
0.621933 0.617688 0.724869
0.691511 0.637272 0.744848
0.761990 0.656931 0.764895
0.287627 0.615672 0.672542
0.351207 0.635247 0.692335
0.416246 0.654899 0.712199
0.482579 0.674626 0.732134
0.550076 0.694426 0.752139
0.618635 0.714298 0.772211
0.688168 0.734240 0.792349
0.758605 0.754252 0.812553
0.829884 0.774331 0.832821
0.348137 0.732179 0.739409
0.413110 0.752184 0.759438
0.479384 0.772256 0.779535
0.546828 0.792395 0.799697
0.615338 0.812599 0.819925
0.684827 0.832867 0.840216
0.755222 0.853198 0.860570
0.826462 0.873591 0.880985
0.898494 0.894045 0.901461
0.409977 0.851097 0.807054
0.476192 0.871484 0.827305
0.543583 0.891932 0.847619
0.612044 0.912440 0.867995
0.681488 0.933007 0.888433
0.751841 0.953631 0.908930
0.823042 0.974313 0.929487
0.895037 0.995052 0.950102
0.967779 1.000000 0.970774
0.000000 0.006710 0.343239
0.022968 0.019997 0.361459
0.074413 0.033897 0.379793
0.130002 0.048285 0.398237
0.188475 0.063083 0.416788
0.249195 0.078234 0.435443
0.311769 0.093697 0.454197
0.375930 0.109440 0.473049
0.441481 0.125438 0.491996
0.020657 0.092088 0.404979
0.071848 0.107804 0.423568
0.127275 0.123776 0.442259
0.185628 0.139984 0.461049
0.246251 0.156409 0.479936
0.308743 0.173036 0.498916
0.372833 0.189852 0.517987
0.438322 0.206846 0.537147
0.505057 0.224008 0.556393
0.069292 0.188108 0.467914
0.124555 0.205084 0.486835
0.182786 0.222229 0.505849
0.243311 0.239534 0.524953
0.305721 0.256991 0.544144
0.369740 0.274592 0.563421
0.435165 0.292332 0.582781
0.501844 0.310205 0.602223
0.569656 0.328204 0.621745
0.121842 0.290495 0.531929
0.179950 0.308354 0.551152
0.240376 0.326341 0.570460
0.302703 0.344450 0.589850
0.366650 0.362677 0.609321
0.432012 0.381019 0.628871
0.498634 0.399470 0.648498
0.566394 0.418028 0.668201
0.635193 0.436690 0.687977
0.177118 0.397561 0.596930
0.237445 0.416109 0.616430
0.299688 0.434759 0.636008
0.363563 0.453510 0.655663
0.428861 0.472359 0.675392
0.495426 0.491302 0.695195
0.563134 0.510337 0.715070
0.631886 0.529461 0.735015
0.701598 0.548673 0.755029
0.234518 0.508368 0.662837
0.296677 0.527484 0.682594
0.360479 0.546686 0.702423
0.425713 0.565975 0.722323
0.492221 0.585346 0.742294
0.559877 0.604798 0.762333
0.628581 0.624330 0.782439
0.698248 0.643940 0.802611
0.768810 0.663625 0.822847
0.293670 0.622311 0.729586
0.357399 0.641913 0.749581
0.422568 0.661590 0.769645
0.489018 0.681342 0.789775
0.556622 0.701167 0.809971
0.625278 0.721063 0.830231
0.694901 0.741029 0.850554
0.765421 0.761063 0.870939
0.836778 0.781165 0.891385
0.354322 0.738965 0.797120
0.419427 0.758993 0.817339
0.485818 0.779088 0.837622
0.553370 0.799249 0.857968
0.621977 0.819475 0.878376
0.691556 0.839764 0.898844
0.762035 0.860117 0.919372
0.833353 0.880531 0.939958
0.905458 0.901005 0.960602
0.416288 0.858014 0.865391
0.482621 0.878421 0.885820
0.550119 0.898890 0.906310
0.618678 0.919418 0.926860
0.688213 0.940004 0.947467
0.758650 0.960649 0.968132
0.829929 0.981350 0.988854
0.901998 1.000000 1.000000
0.974810 1.000000 1.000000
0.000000 0.011143 0.395877
0.027669 0.024656 0.414414
0.079605 0.038733 0.433056
0.135510 0.053268 0.451798
0.194222 0.068191 0.470637
0.255135 0.083452 0.489572
0.317871 0.099014 0.508599
0.382173 0.114846 0.527715
0.447850 0.130925 0.546919
0.025326 0.097395 0.458645
0.077022 0.113200 0.477520
0.132771 0.129255 0.496488
0.191365 0.145538 0.515548
0.252182 0.162033 0.534696
0.314839 0.178726 0.553932
0.379070 0.195604 0.573251
0.444685 0.212656 0.592653
0.511534 0.229873 0.612136
0.074447 0.193854 0.522509
0.130038 0.210888 0.541689
0.188513 0.228089 0.560956
0.249234 0.245446 0.580306
0.311809 0.262953 0.599737
0.375971 0.280602 0.619249
0.441523 0.298387 0.638838
0.508316 0.316303 0.658504
0.576231 0.334345 0.678244
0.127311 0.296546 0.587371
0.185666 0.314449 0.606831
0.246290 0.332477 0.626371
0.308784 0.350627 0.645989
0.372874 0.368894 0.665682
0.438364 0.387273 0.685449
0.505100 0.405761 0.705289
0.572964 0.424354 0.725199
0.641859 0.443050 0.745180
0.182824 0.403848 0.653150
0.243350 0.422431 0.672870
0.305762 0.441116 0.692664
0.369781 0.459900 0.712529
0.435207 0.478781 0.732465
0.501887 0.497756 0.752471
0.569700 0.516821 0.772544
0.638547 0.535976 0.792684
0.708347 0.555217 0.812889
0.240415 0.514850 0.719779
0.302743 0.533995 0.739741
0.366691 0.553227 0.759771
0.432054 0.572544 0.779868
0.498677 0.591943 0.800032
0.566438 0.611423 0.820260
0.635237 0.630981 0.840553
0.704994 0.650616 0.860907
0.775638 0.670327 0.881324
0.299728 0.628959 0.787202
0.363604 0.648587 0.807389
0.428903 0.668290 0.827641
0.495469 0.688066 0.847956
0.563178 0.707915 0.868333
0.631930 0.727835 0.888772
0.701642 0.747825 0.909270
0.772246 0.767882 0.929828
0.843680 0.788007 0.950444
0.360520 0.745759 0.855367
0.425755 0.765809 0.875767
0.492264 0.785927 0.896228
0.559920 0.806110 0.916748
0.628625 0.826358 0.937327
0.698293 0.846669 0.957964
0.768855 0.867043 0.978658
0.840251 0.887477 0.999408
0.912429 0.907972 1.000000
0.422610 0.864937 0.924233
0.489061 0.885366 0.944834
0.556665 0.905855 0.965491
0.625322 0.926403 0.986206
0.694946 0.947009 1.000000
0.765467 0.967673 1.000000
0.836824 0.988393 1.000000
0.908966 1.000000 1.000000
0.981847 1.000000 1.000000
